; generated by PrusaSlicer 2.3.1+linux-x64 on 2021-05-03 at 20:16:10 UTC

; 

; external perimeters extrusion width = 0.45mm
; perimeters extrusion width = 0.45mm
; infill extrusion width = 0.45mm
; solid infill extrusion width = 0.45mm
; top infill extrusion width = 0.40mm
; support material extrusion width = 0.35mm
; first layer extrusion width = 0.42mm

M73 P0 R96
M73 Q0 S96
M201 X1000 Y1000 Z200 E5000 ; sets maximum accelerations, mm/sec^2
M203 X200 Y200 Z12 E120 ; sets maximum feedrates, mm/sec
M204 P1250 R1250 T1250 ; sets acceleration (P, T) and retract acceleration (R), mm/sec^2
M205 X8.00 Y8.00 Z0.40 E4.50 ; sets the jerk limits, mm/sec
M205 S0 T0 ; sets the minimum extruding and travel feed rate, mm/sec
M107
;TYPE:Custom
M862.3 P "MK3" ; printer model check
M862.1 P0.4 ; nozzle diameter check
M115 U3.9.3 ; tell printer latest fw version
G90 ; use absolute coordinates
M83 ; extruder relative mode
M104 S230 ; set extruder temp
M140 S85 ; set bed temp
M190 S85 ; wait for bed temp
M109 S230 ; wait for extruder temp
G28 W ; home all without mesh bed level
G80 ; mesh bed leveling
G1 Y-3.0 F1000.0 ; go outside print area
G92 E0.0
G1 X60.0 E9.0 F1000.0 ; intro line
G1 X100.0 E12.5 F1000.0 ; intro line
G92 E0.0
M221 S95

; Don't change E values below. Excessive value can damage the printer.
M907 E430 ; set extruder motor current
G21 ; set units to millimeters
G90 ; use absolute coordinates
M83 ; use relative distances for extrusion
M900 K0.08 ; Filament gcode LA 1.5
M900 K45 ; Filament gcode LA 1.0
;LAYER_CHANGE
;Z:0.2
;HEIGHT:0.2
;BEFORE_LAYER_CHANGE
G92 E0.0
;0.2


G1 E-1.40000 F2100.000
G1 Z0.200 F10800.000
;AFTER_LAYER_CHANGE
;0.2
G1 Z0.400
G1 X106.374 Y95.368
G1 Z0.200
G1 E1.40000 F2100.000
M204 S1000
;TYPE:Skirt
;WIDTH:0.42
G1 F1200.000
G1 X107.127 Y94.787 E0.02980
G1 X108.028 Y94.497 E0.02968
G1 X125.734 Y92.577 E0.55843
G1 X126.716 Y92.534 E0.03080
G1 X128.550 Y92.663 E0.05764
G1 X129.630 Y92.868 E0.03449
G1 X131.328 Y93.397 E0.05576
G1 X133.064 Y94.240 E0.06050
G1 X134.538 Y95.249 E0.05602
G1 X135.897 Y96.508 E0.05807
G1 X136.881 Y97.709 E0.04870
G1 X137.938 Y99.468 E0.06435
G1 X138.627 Y101.149 E0.05695
G1 X139.082 Y103.047 E0.06119
G1 X139.236 Y104.988 E0.06106
G1 X139.099 Y106.843 E0.05833
G1 X138.682 Y108.678 E0.05901
G1 X138.001 Y110.411 E0.05837
G1 X137.068 Y112.026 E0.05850
G1 X135.918 Y113.469 E0.05786
G1 X134.100 Y115.083 E0.07621
G1 X132.326 Y116.159 E0.06507
G1 X131.240 Y116.637 E0.03719
G1 X129.630 Y117.132 E0.05281
G1 X127.584 Y117.439 E0.06485
G1 X125.729 Y117.422 E0.05819
G1 X108.045 Y115.336 E0.55829
G1 X107.245 Y115.102 E0.02612
G1 X106.552 Y114.640 E0.02612
G1 X106.176 Y114.219 E0.01771
G1 X105.894 Y113.730 E0.01771
G1 X105.718 Y113.193 E0.01771
G1 X105.654 Y112.632 E0.01771
G1 X105.657 Y97.110 E0.48669
M73 P0 R95
G1 X105.861 Y96.177 E0.02993
G1 X106.342 Y95.418 E0.02817
G1 X106.658 Y95.621 F10800.000
G1 F1200.000
G1 X107.315 Y95.114 E0.02603
G1 X108.092 Y94.868 E0.02555
G1 X125.774 Y92.952 E0.55766
G1 X126.715 Y92.911 E0.02953
G1 X128.507 Y93.037 E0.05632
G1 X129.531 Y93.232 E0.03267
G1 X131.184 Y93.745 E0.05428
G1 X132.861 Y94.558 E0.05845
G1 X134.300 Y95.542 E0.05464
G1 X135.620 Y96.765 E0.05643
G1 X136.569 Y97.920 E0.04687
G1 X137.593 Y99.622 E0.06228
G1 X138.266 Y101.260 E0.05553
G1 X138.710 Y103.105 E0.05947
G1 X138.859 Y104.988 E0.05923
G1 X138.726 Y106.790 E0.05667
G1 X138.322 Y108.565 E0.05709
G1 X137.660 Y110.249 E0.05673
G1 X136.753 Y111.819 E0.05685
G1 X135.623 Y113.232 E0.05673
G1 X133.873 Y114.782 E0.07328
G1 X132.162 Y115.820 E0.06275
G1 X131.110 Y116.283 E0.03605
G1 X129.535 Y116.767 E0.05166
G1 X127.568 Y117.062 E0.06237
G1 X125.768 Y117.047 E0.05642
G1 X108.100 Y114.963 E0.55783
G1 X107.397 Y114.757 E0.02296
G1 X106.790 Y114.347 E0.02296
G1 X106.232 Y113.561 E0.03024
G1 X106.031 Y112.621 E0.03013
G1 X106.033 Y97.137 E0.48550
G1 X106.212 Y96.315 E0.02637
G1 X106.625 Y95.671 E0.02398
; printing object needle_drill_guide_for_ptfe_tube.stl id:0 copy 0
;WIPE_START
G1 F8640.000
G1 X107.315 Y95.114 E-0.20478
G1 X108.092 Y94.868 E-0.18816
G1 X112.127 Y94.431 E-0.93706
;WIPE_END
G1 E-0.07000 F2100.000
G1 Z0.400 F10800.000
G1 X108.409 Y97.224
G1 Z0.200
G1 E1.40000 F2100.000
;TYPE:Support material
G1 F1200.000
G1 X108.409 Y112.606 E0.48228
G1 X109.163 Y112.606 E0.02365
G1 X109.163 Y97.394 E0.47696
G1 X109.917 Y97.394 E0.02365
G1 X109.917 Y112.776 E0.48228
G1 X115.196 Y112.776 F10800.000
G1 F1200.000
G1 X115.196 Y107.665 E0.16023
G1 X114.442 Y107.665 E0.02365
G1 X114.442 Y112.606 E0.15491
G1 X113.688 Y112.606 E0.02365
G1 X113.688 Y107.665 E0.15491
G1 X112.933 Y107.665 E0.02365
G1 X112.933 Y112.606 E0.15491
G1 X112.179 Y112.606 E0.02365
G1 X112.179 Y107.665 E0.15491
G1 X111.425 Y107.665 E0.02365
G1 X111.425 Y112.606 E0.15491
G1 X110.671 Y112.606 E0.02365
G1 X110.671 Y97.394 E0.47696
G1 X111.425 Y97.394 E0.02365
G1 X111.425 Y102.335 E0.15491
G1 X112.179 Y102.335 E0.02365
G1 X112.179 Y97.394 E0.15491
G1 X112.933 Y97.394 E0.02365
G1 X112.933 Y102.335 E0.15491
G1 X113.688 Y102.335 E0.02365
G1 X113.688 Y97.394 E0.15491
G1 X114.442 Y97.394 E0.02365
G1 X114.442 Y102.335 E0.15491
G1 X115.196 Y102.335 E0.02365
G1 X115.196 Y97.394 E0.15491
G1 X115.950 Y97.394 E0.02365
G1 X115.950 Y112.776 E0.48228
G1 X118.213 Y112.776 F10800.000
G1 F1200.000
G1 X118.213 Y109.629 E0.09865
G1 X118.031 Y109.322 E0.01119
G1 X117.458 Y107.884 E0.04852
G1 X117.458 Y112.606 E0.14804
G1 X116.704 Y112.606 E0.02365
G1 X116.704 Y97.394 E0.47696
G1 X117.458 Y97.394 E0.02365
G1 X117.458 Y102.120 E0.14817
G1 X117.965 Y100.816 E0.04386
G1 X118.213 Y100.378 E0.01577
G1 X118.213 Y97.224 E0.09888
;WIPE_START
G1 F8640.000
G1 X118.213 Y100.378 E-0.72821
G1 X117.965 Y100.816 E-0.11617
G1 X117.458 Y102.120 E-0.32296
G1 X117.458 Y101.415 E-0.16266
;WIPE_END
G1 E-0.07000 F2100.000
G1 Z0.400 F10800.000
G1 X111.537 Y102.539
G1 Z0.200
G1 E1.40000 F2100.000
;TYPE:Support material interface
;WIDTH:0.35
G1 F1200.000
G1 X111.537 Y107.318 E0.12202
G1 X112.055 Y107.318 E0.01322
G1 X112.055 Y102.682 E0.11837
G1 X112.573 Y102.682 E0.01322
G1 X112.573 Y107.318 E0.11837
G1 X113.090 Y107.318 E0.01322
G1 X113.090 Y102.682 E0.11837
G1 X113.608 Y102.682 E0.01322
G1 X113.608 Y107.318 E0.11837
G1 X114.126 Y107.318 E0.01322
G1 X114.126 Y102.682 E0.11837
G1 X114.644 Y102.682 E0.01322
G1 X114.644 Y107.318 E0.11837
G1 X115.162 Y107.318 E0.01322
G1 X115.162 Y102.682 E0.11837
G1 X115.679 Y102.682 E0.01322
G1 X115.679 Y107.461 E0.12202
;WIPE_START
G1 F8640.000
G1 X115.679 Y102.682 E-1.10341
G1 X115.162 Y102.682 E-0.11956
G1 X115.162 Y103.146 E-0.10703
;WIPE_END
G1 E-0.07000 F2100.000
G1 Z0.400 F10800.000
G1 X120.529 Y105.666
G1 Z0.200
G1 E1.40000 F2100.000
;TYPE:Perimeter
;WIDTH:0.42
G1 F1200.000
G1 X120.528 Y105.282 E0.01205
G1 X120.474 Y105.099 E0.00597
G1 X120.474 Y104.515 E0.01832
G1 X120.522 Y104.435 E0.00293
G1 X120.601 Y103.793 E0.02029
G1 X120.791 Y103.138 E0.02138
G1 X121.243 Y102.071 E0.03633
G1 X121.879 Y101.105 E0.03626
G1 X122.141 Y100.796 E0.01270
G1 X122.714 Y100.241 E0.02500
G1 X123.155 Y99.899 E0.01751
G1 X123.693 Y99.556 E0.02001
G1 X124.337 Y99.240 E0.02250
G1 X124.785 Y99.071 E0.01501
G1 X125.668 Y98.843 E0.02858
G1 X127.013 Y98.749 E0.04229
G1 X128.276 Y98.928 E0.03998
G1 X129.395 Y99.322 E0.03722
G1 X130.399 Y99.907 E0.03641
G1 X130.784 Y100.206 E0.01529
G1 X131.307 Y100.697 E0.02250
G1 X131.722 Y101.182 E0.02001
G1 X132.043 Y101.639 E0.01751
G1 X132.427 Y102.338 E0.02501
G1 X132.586 Y102.704 E0.01251
G1 X132.879 Y103.654 E0.03116
G1 X133.026 Y104.994 E0.04229
G1 X132.913 Y106.179 E0.03731
G1 X132.588 Y107.291 E0.03632
G1 X132.427 Y107.662 E0.01270
G1 X132.043 Y108.361 E0.02500
G1 X131.722 Y108.818 E0.01751
G1 X131.307 Y109.303 E0.02001
G1 X130.784 Y109.794 E0.02250
G1 X130.405 Y110.087 E0.01501
G1 X129.628 Y110.564 E0.02858
G1 X128.370 Y111.048 E0.04229
G1 X127.110 Y111.246 E0.03998
G1 X125.924 Y111.198 E0.03722
G1 X124.793 Y110.932 E0.03641
G1 X124.337 Y110.760 E0.01529
G1 X123.693 Y110.444 E0.02250
G1 X123.155 Y110.101 E0.02001
G1 X122.714 Y109.759 E0.01751
G1 X122.141 Y109.204 E0.02500
G1 X121.883 Y108.900 E0.01252
G1 X121.324 Y108.078 E0.03116
G1 X120.799 Y106.859 E0.04161
G1 X120.638 Y106.248 E0.01982
G1 X120.540 Y105.725 E0.01666
;WIPE_START
G1 F8640.000
G1 X120.528 Y105.282 E-0.10242
G1 X120.474 Y105.099 E-0.04393
G1 X120.474 Y104.515 E-0.13490
G1 X120.522 Y104.435 E-0.02158
G1 X120.601 Y103.793 E-0.14942
G1 X120.791 Y103.138 E-0.15746
G1 X121.243 Y102.071 E-0.26757
G1 X121.879 Y101.105 E-0.26702
G1 X122.141 Y100.796 E-0.09351
G1 X122.428 Y100.518 E-0.09219
;WIPE_END
G1 E-0.07000 F2100.000
G1 Z0.400 F10800.000
G1 X120.851 Y104.620
G1 Z0.200
G1 E1.40000 F2100.000
;TYPE:External perimeter
G1 F1200.000
G1 X120.902 Y104.535 E0.00310
G1 X120.900 Y104.433 E0.00319
G1 X120.971 Y103.870 E0.01781
G1 X121.147 Y103.264 E0.01976
G1 X121.577 Y102.249 E0.03456
G1 X122.181 Y101.331 E0.03445
G1 X122.417 Y101.055 E0.01140
G1 X122.961 Y100.526 E0.02379
G1 X123.372 Y100.207 E0.01630
G1 X123.878 Y99.886 E0.01880
G1 X124.488 Y99.586 E0.02129
G1 X124.899 Y99.431 E0.01381
G1 X125.729 Y99.217 E0.02685
G1 X127.000 Y99.128 E0.03995
G1 X128.186 Y99.296 E0.03756
G1 X129.236 Y99.666 E0.03493
G1 X130.187 Y100.221 E0.03451
G1 X130.539 Y100.493 E0.01395
G1 X131.034 Y100.958 E0.02129
G1 X131.423 Y101.414 E0.01880
G1 X131.722 Y101.839 E0.01630
G1 X132.088 Y102.504 E0.02380
G1 X132.232 Y102.835 E0.01130
G1 X132.508 Y103.730 E0.02939
G1 X132.647 Y104.997 E0.03995
G1 X132.541 Y106.108 E0.03498
G1 X132.233 Y107.162 E0.03446
G1 X132.088 Y107.496 E0.01140
G1 X131.722 Y108.161 E0.02379
G1 X131.423 Y108.586 E0.01630
G1 X131.034 Y109.042 E0.01880
G1 X130.539 Y109.507 E0.02129
G1 X130.191 Y109.777 E0.01381
G1 X129.461 Y110.224 E0.02685
G1 X128.272 Y110.682 E0.03995
G1 X127.088 Y110.868 E0.03756
G1 X125.975 Y110.822 E0.03493
G1 X124.904 Y110.571 E0.03451
G1 X124.488 Y110.414 E0.01395
G1 X123.878 Y110.114 E0.02129
G1 X123.372 Y109.793 E0.01880
G1 X122.961 Y109.474 E0.01630
G1 X122.417 Y108.945 E0.02379
G1 X122.183 Y108.671 E0.01131
G1 X121.656 Y107.895 E0.02939
G1 X121.157 Y106.736 E0.03960
G1 X121.006 Y106.165 E0.01851
G1 X120.906 Y105.631 E0.01703
G1 X120.905 Y105.228 E0.01264
G1 X120.851 Y105.045 E0.00595
G1 X120.851 Y104.680 E0.01147
G1 X120.787 Y104.545 F10800.000
;WIPE_START
G1 F8640.000
G1 X120.902 Y104.535 E-0.03543
G1 X120.900 Y104.433 E-0.02351
G1 X120.971 Y103.870 E-0.13116
G1 X121.147 Y103.264 E-0.14552
G1 X121.577 Y102.249 E-0.25452
G1 X122.181 Y101.331 E-0.25370
G1 X122.417 Y101.055 E-0.08397
G1 X122.961 Y100.526 E-0.17519
G1 X123.372 Y100.207 E-0.12006
G1 X123.763 Y99.959 E-0.10694
;WIPE_END
G1 E-0.07000 F2100.000
G1 Z0.400 F10800.000
G1 X118.366 Y105.198
G1 Z0.200
G1 E1.40000 F2100.000
;TYPE:Perimeter
G1 F1200.000
G1 X118.210 Y104.670 E0.01726
G1 X118.315 Y103.778 E0.02815
G1 X118.594 Y102.512 E0.04066
G1 X119.057 Y101.320 E0.04008
G1 X119.692 Y100.210 E0.04010
G1 X120.299 Y99.444 E0.03063
G1 X120.445 Y99.438 E0.00457
G1 X121.204 Y98.729 E0.03258
G1 X121.512 Y98.262 E0.01755
G1 X121.676 Y98.136 E0.00649
G1 X122.486 Y97.603 E0.03039
G1 X122.820 Y97.420 E0.01195
G1 X123.635 Y97.048 E0.02809
G1 X124.062 Y96.892 E0.01425
G1 X124.854 Y96.670 E0.02578
G1 X125.372 Y96.567 E0.01656
G1 X126.115 Y96.477 E0.02348
G1 X126.717 Y96.452 E0.01887
G1 X127.392 Y96.475 E0.02117
G1 X128.063 Y96.551 E0.02117
G1 X128.654 Y96.662 E0.01887
G1 X129.376 Y96.859 E0.02348
G1 X129.874 Y97.036 E0.01656
G1 X130.625 Y97.371 E0.02578
G1 X131.025 Y97.587 E0.01425
G1 X131.778 Y98.073 E0.02809
G1 X132.082 Y98.303 E0.01195
G1 X132.806 Y98.947 E0.03039
G1 X133.020 Y99.168 E0.00964
G1 X133.668 Y99.953 E0.03192
G1 X134.377 Y101.106 E0.04245
G1 X134.894 Y102.349 E0.04221
G1 X135.210 Y103.658 E0.04221
G1 X135.316 Y105.002 E0.04226
G1 X135.220 Y106.275 E0.04005
G1 X134.935 Y107.522 E0.04010
G1 X134.468 Y108.713 E0.04010
G1 X133.979 Y109.558 E0.03063
G1 X133.835 Y109.585 E0.00457
G1 X133.187 Y110.397 E0.03258
G1 X132.950 Y110.904 E0.01755
G1 X132.806 Y111.053 E0.00649
G1 X132.082 Y111.697 E0.03039
G1 X131.778 Y111.927 E0.01195
G1 X131.025 Y112.413 E0.02809
G1 X130.625 Y112.629 E0.01425
G1 X129.874 Y112.964 E0.02578
G1 X129.376 Y113.141 E0.01656
G1 X128.654 Y113.338 E0.02348
G1 X128.063 Y113.449 E0.01887
G1 X127.392 Y113.525 E0.02117
G1 X126.717 Y113.548 E0.02117
G1 X126.115 Y113.523 E0.01887
G1 X125.372 Y113.433 E0.02348
G1 X124.854 Y113.330 E0.01656
G1 X124.062 Y113.108 E0.02578
G1 X123.635 Y112.952 E0.01425
G1 X122.820 Y112.580 E0.02809
G1 X122.486 Y112.397 E0.01195
G1 X121.676 Y111.864 E0.03039
G1 X121.432 Y111.677 E0.00964
G1 X120.678 Y110.994 E0.03192
G1 X119.808 Y109.956 E0.04245
G1 X119.116 Y108.801 E0.04221
G1 X118.614 Y107.552 E0.04221
G1 X118.316 Y106.248 E0.04193
G1 X118.270 Y105.642 E0.01908
G1 X118.353 Y105.256 E0.01237
G1 X117.977 Y105.212 F10800.000
;TYPE:External perimeter
G1 F1200.000
G1 X117.826 Y104.702 E0.01667
G1 X117.943 Y103.715 E0.03117
G1 X118.232 Y102.402 E0.04216
G1 X118.716 Y101.157 E0.04188
G1 X119.379 Y99.998 E0.04188
G1 X120.111 Y99.074 E0.03694
G1 X120.290 Y99.067 E0.00561
G1 X120.914 Y98.484 E0.02678
G1 X121.232 Y98.002 E0.01812
G1 X121.457 Y97.828 E0.00891
G1 X122.291 Y97.280 E0.03130
G1 X122.651 Y97.082 E0.01286
G1 X123.492 Y96.699 E0.02900
G1 X123.947 Y96.533 E0.01516
G1 X124.766 Y96.303 E0.02669
G1 X125.313 Y96.195 E0.01747
G1 X126.085 Y96.101 E0.02439
G1 X126.715 Y96.075 E0.01978
G1 X127.419 Y96.099 E0.02208
G1 X128.119 Y96.177 E0.02208
G1 X128.739 Y96.295 E0.01978
G1 X129.489 Y96.499 E0.02439
G1 X130.014 Y96.685 E0.01747
G1 X130.792 Y97.032 E0.02669
G1 X131.217 Y97.262 E0.01516
G1 X131.994 Y97.764 E0.02900
G1 X132.321 Y98.011 E0.01286
G1 X133.067 Y98.675 E0.03130
G1 X133.301 Y98.917 E0.01055
G1 X133.975 Y99.734 E0.03320
G1 X134.714 Y100.934 E0.04420
G1 X135.254 Y102.232 E0.04408
G1 X135.583 Y103.599 E0.04408
G1 X135.694 Y105.001 E0.04410
G1 X135.594 Y106.332 E0.04185
G1 X135.297 Y107.634 E0.04188
G1 X134.808 Y108.877 E0.04188
G1 X134.218 Y109.897 E0.03694
G1 X134.042 Y109.930 E0.00561
G1 X133.509 Y110.597 E0.02678
G1 X133.265 Y111.121 E0.01812
G1 X133.067 Y111.325 E0.00891
G1 X132.321 Y111.989 E0.03130
G1 X131.994 Y112.236 E0.01286
G1 X131.217 Y112.738 E0.02900
G1 X130.792 Y112.968 E0.01516
G1 X130.014 Y113.315 E0.02669
G1 X129.489 Y113.501 E0.01747
G1 X128.739 Y113.705 E0.02439
G1 X128.119 Y113.823 E0.01978
G1 X127.419 Y113.901 E0.02208
G1 X126.715 Y113.925 E0.02208
G1 X126.085 Y113.899 E0.01978
G1 X125.313 Y113.805 E0.02439
G1 X124.766 Y113.697 E0.01747
G1 X123.947 Y113.467 E0.02669
G1 X123.492 Y113.301 E0.01516
G1 X122.651 Y112.918 E0.02900
G1 X122.291 Y112.720 E0.01286
G1 X121.457 Y112.172 E0.03130
G1 X121.191 Y111.966 E0.01055
G1 X120.405 Y111.256 E0.03320
G1 X119.500 Y110.175 E0.04420
G1 X118.777 Y108.969 E0.04408
G1 X118.253 Y107.665 E0.04408
G1 X117.941 Y106.299 E0.04393
G1 X117.924 Y105.917 E0.01198
G1 X117.888 Y105.625 E0.00924
G1 X117.964 Y105.271 E0.01136
G1 X118.285 Y104.957 F10800.000
;WIPE_START
G1 F8640.000
G1 X117.826 Y104.702 E-0.13505
G1 X117.943 Y103.715 E-0.22952
G1 X118.232 Y102.402 E-0.31045
G1 X118.716 Y101.157 E-0.30838
G1 X119.379 Y99.998 E-0.30840
G1 X119.482 Y99.868 E-0.03819
;WIPE_END
G1 E-0.07000 F2100.000
G1 Z0.400 F10800.000
G1 X131.447 Y97.994
G1 Z0.200
G1 E1.40000 F2100.000
;TYPE:Solid infill
;WIDTH:0.427133
G1 F1200.000
G1 X132.809 Y99.357 E0.06154
G1 X133.437 Y100.118 E0.03154
G1 X134.091 Y101.181 E0.03988
G1 X130.576 Y97.665 E0.15885
G1 X129.608 Y97.242 E0.03374
G1 X134.497 Y102.130 E0.22087
G1 X134.625 Y102.437 E0.01063
G1 X134.740 Y102.917 E0.01576
G1 X128.826 Y97.002 E0.26722
G1 X128.590 Y96.938 E0.00779
G1 X128.131 Y96.851 E0.01492
G1 X134.913 Y103.633 E0.30639
G1 X134.972 Y104.235 E0.01933
G1 X132.353 Y101.616 E0.11832
G1 X132.283 Y101.489 E0.00463
G1 X131.945 Y101.009 E0.01877
G1 X131.512 Y100.502 E0.02131
G1 X130.968 Y99.991 E0.02385
G1 X130.557 Y99.672 E0.01660
G1 X130.202 Y99.466 E0.01312
G1 X127.509 Y96.773 E0.12166
G1 X126.936 Y96.743 E0.01835
G1 X129.119 Y98.925 E0.09861
M73 Q0 S95
G1 X128.296 Y98.646 E0.02777
G1 X126.399 Y96.749 E0.08571
G1 X126.138 Y96.759 E0.00832
