; generated by PrusaSlicer 2.3.1+linux-x64 on 2021-05-01 at 03:00:37 UTC

; 

; external perimeters extrusion width = 0.45mm
; perimeters extrusion width = 0.45mm
; infill extrusion width = 0.45mm
; solid infill extrusion width = 0.45mm
; top infill extrusion width = 0.40mm
; support material extrusion width = 0.35mm
; first layer extrusion width = 0.42mm

M73 P0 R92
M73 Q0 S93
M201 X1000 Y1000 Z200 E5000 ; sets maximum accelerations, mm/sec^2
M203 X200 Y200 Z12 E120 ; sets maximum feedrates, mm/sec
M204 P1250 R1250 T1250 ; sets acceleration (P, T) and retract acceleration (R), mm/sec^2
M205 X8.00 Y8.00 Z0.40 E4.50 ; sets the jerk limits, mm/sec
M205 S0 T0 ; sets the minimum extruding and travel feed rate, mm/sec
M107
;TYPE:Custom
M862.3 P "MK3" ; printer model check
M862.1 P0.4 ; nozzle diameter check
M115 U3.9.3 ; tell printer latest fw version
G90 ; use absolute coordinates
M83 ; extruder relative mode
M104 S230 ; set extruder temp
M140 S85 ; set bed temp
M190 S85 ; wait for bed temp
M109 S230 ; wait for extruder temp
G28 W ; home all without mesh bed level
G80 ; mesh bed leveling
G1 Y-3.0 F1000.0 ; go outside print area
G92 E0.0
G1 X60.0 E9.0 F1000.0 ; intro line
G1 X100.0 E12.5 F1000.0 ; intro line
G92 E0.0
M221 S95

; Don't change E values below. Excessive value can damage the printer.
M907 E430 ; set extruder motor current
G21 ; set units to millimeters
G90 ; use absolute coordinates
M83 ; use relative distances for extrusion
M900 K0.08 ; Filament gcode LA 1.5
M900 K45 ; Filament gcode LA 1.0
;LAYER_CHANGE
;Z:0.2
;HEIGHT:0.2
;BEFORE_LAYER_CHANGE
G92 E0.0
;0.2


G1 E-1.40000 F2100.000
G1 Z0.200 F10800.000
;AFTER_LAYER_CHANGE
;0.2
G1 Z0.400
G1 X109.285 Y95.014
G1 Z0.200
G1 E1.40000 F2100.000
M204 S1000
;TYPE:Skirt
;WIDTH:0.42
G1 F1200.000
G1 X110.233 Y94.675 E0.03157
G1 X125.812 Y92.779 E0.49206
G1 X126.812 Y92.734 E0.03140
G1 X128.617 Y92.863 E0.05672
G1 X129.678 Y93.066 E0.03389
G1 X131.345 Y93.587 E0.05476
G1 X133.052 Y94.418 E0.05951
G1 X134.502 Y95.413 E0.05515
G1 X135.836 Y96.651 E0.05707
G1 X136.802 Y97.830 E0.04779
G1 X137.834 Y99.546 E0.06279
G1 X138.517 Y101.211 E0.05642
G1 X138.965 Y103.076 E0.06014
G1 X139.116 Y104.984 E0.06001
G1 X138.985 Y106.791 E0.05682
G1 X138.573 Y108.612 E0.05853
G1 X137.912 Y110.301 E0.05686
G1 X136.996 Y111.894 E0.05763
G1 X135.967 Y113.199 E0.05211
G1 X134.451 Y114.627 E0.06530
G1 X133.083 Y115.563 E0.05197
G1 X132.354 Y115.962 E0.02607
G1 X130.490 Y116.712 E0.06300
G1 X128.812 Y117.107 E0.05402
G1 X127.730 Y117.235 E0.03418
G1 X125.860 Y117.226 E0.05861
G1 X110.336 Y115.509 E0.48973
G1 X109.601 Y115.313 E0.02383
G1 X108.945 Y114.922 E0.02396
G1 X108.523 Y114.499 E0.01873
G1 X108.202 Y113.995 E0.01873
G1 X107.996 Y113.430 E0.01886
G1 X107.918 Y112.838 E0.01873
G1 X107.919 Y97.296 E0.48731
G1 X108.089 Y96.435 E0.02752
G1 X108.525 Y95.668 E0.02765
G1 X109.240 Y95.053 E0.02957
G1 X109.481 Y95.340 F10800.000
G1 F1200.000
G1 X110.309 Y95.045 E0.02756
G1 X125.856 Y93.154 E0.49105
G1 X126.812 Y93.111 E0.02999
G1 X128.574 Y93.238 E0.05539
G1 X129.579 Y93.429 E0.03208
G1 X131.205 Y93.937 E0.05340
G1 X132.853 Y94.738 E0.05745
G1 X134.264 Y95.705 E0.05364
G1 X135.558 Y96.905 E0.05531
G1 X136.492 Y98.045 E0.04621
G1 X137.492 Y99.704 E0.06076
G1 X138.158 Y101.326 E0.05497
G1 X138.592 Y103.134 E0.05830
G1 X138.739 Y104.988 E0.05831
G1 X138.611 Y106.744 E0.05519
G1 X138.213 Y108.499 E0.05645
G1 X137.569 Y110.144 E0.05538
G1 X136.680 Y111.688 E0.05585
G1 X135.658 Y112.981 E0.05168
G1 X134.220 Y114.329 E0.06180
G1 X132.879 Y115.245 E0.05094
G1 X132.185 Y115.625 E0.02482
G1 X130.387 Y116.349 E0.06075
G1 X128.742 Y116.737 E0.05300
G1 X127.701 Y116.859 E0.03288
G1 X125.899 Y116.851 E0.05650
G1 X110.387 Y115.136 E0.48932
G1 X109.738 Y114.962 E0.02107
G1 X109.163 Y114.613 E0.02107
G1 X108.804 Y114.247 E0.01609
G1 X108.530 Y113.809 E0.01621
G1 X108.358 Y113.325 E0.01609
G1 X108.294 Y112.816 E0.01609
G1 X108.295 Y97.318 E0.48593
G1 X108.445 Y96.559 E0.02426
G1 X108.834 Y95.886 E0.02437
G1 X109.435 Y95.378 E0.02468
; printing object needle_drill_guide_for_ptfe_tube-needle_drill_guide_for_ptfe_tube.stl id:0 copy 0
;WIPE_START
G1 F8640.000
G1 X110.309 Y95.045 E-0.21600
G1 X115.099 Y94.462 E-1.11400
;WIPE_END
G1 E-0.07000 F2100.000
G1 Z0.400 F10800.000
G1 X113.608 Y102.539
G1 Z0.200
G1 E1.40000 F2100.000
;TYPE:Support material interface
;WIDTH:0.35
G1 F1200.000
G1 X113.608 Y107.318 E0.12202
G1 X114.126 Y107.318 E0.01322
G1 X114.126 Y102.682 E0.11837
G1 X114.644 Y102.682 E0.01322
G1 X114.644 Y107.318 E0.11837
G1 X115.162 Y107.318 E0.01322
G1 X115.162 Y102.682 E0.11837
G1 X115.679 Y102.682 E0.01322
G1 X115.679 Y107.461 E0.12202
G1 X110.671 Y112.776 F10800.000
;TYPE:Support material
;WIDTH:0.42
G1 F1200.000
G1 X110.671 Y97.394 E0.48228
G1 X111.425 Y97.394 E0.02365
G1 X111.425 Y112.606 E0.47696
G1 X112.179 Y112.606 E0.02365
G1 X112.179 Y97.394 E0.47696
G1 X112.933 Y97.394 E0.02365
G1 X112.933 Y112.776 E0.48228
G1 X115.196 Y112.776 F10800.000
G1 F1200.000
G1 X115.196 Y107.665 E0.16023
G1 X114.442 Y107.665 E0.02365
G1 X114.442 Y112.606 E0.15491
G1 X113.688 Y112.606 E0.02365
G1 X113.688 Y107.665 E0.15491
G1 X113.063 Y107.665 E0.01957
G1 X113.063 Y102.335 E0.16714
G1 X113.688 Y102.335 E0.01957
G1 X113.688 Y97.394 E0.15491
G1 X114.442 Y97.394 E0.02365
G1 X114.442 Y102.335 E0.15491
G1 X115.196 Y102.335 E0.02365
G1 X115.196 Y97.394 E0.15491
G1 X115.950 Y97.394 E0.02365
G1 X115.950 Y112.776 E0.48228
G1 X118.213 Y112.776 F10800.000
G1 F1200.000
G1 X118.213 Y109.035 E0.11727
M73 Q0 S92
G1 X117.740 Y107.862 E0.03966
G1 X117.458 Y106.645 E0.03918
G1 X117.458 Y112.606 E0.18691
G1 X116.704 Y112.606 E0.02365
G1 X116.704 Y97.394 E0.47696
G1 X117.458 Y97.394 E0.02365
G1 X117.458 Y103.371 E0.18739
G1 X117.727 Y102.179 E0.03831
G1 X118.213 Y100.939 E0.04174
G1 X118.213 Y97.224 E0.11647
;WIPE_START
G1 F8640.000
G1 X118.213 Y100.939 E-0.85773
G1 X117.727 Y102.179 E-0.30742
G1 X117.570 Y102.875 E-0.16485
;WIPE_END
G1 E-0.07000 F2100.000
G1 Z0.400 F10800.000
G1 X122.277 Y101.030
G1 Z0.200
G1 E1.40000 F2100.000
;TYPE:Perimeter
G1 F1200.000
G1 X123.168 Y100.192 E0.03833
G1 X124.185 Y99.565 E0.03746
G1 X124.568 Y99.394 E0.01315
G1 X125.345 Y99.137 E0.02568
G1 X125.827 Y99.034 E0.01545
G1 X126.575 Y98.954 E0.02358
G1 X127.134 Y98.954 E0.01751
G1 X127.786 Y99.020 E0.02056
G1 X128.427 Y99.156 E0.02056
G1 X128.974 Y99.332 E0.01799
G1 X129.647 Y99.632 E0.02312
G1 X130.074 Y99.877 E0.01543
G1 X130.736 Y100.360 E0.02569
G1 X131.041 Y100.634 E0.01286
G1 X131.666 Y101.329 E0.02931
G1 X132.341 Y102.445 E0.04088
G1 X132.763 Y103.691 E0.04127
G1 X132.906 Y104.997 E0.04117
G1 X132.782 Y106.216 E0.03843
G1 X132.417 Y107.383 E0.03833
G1 X131.825 Y108.452 E0.03833
G1 X131.048 Y109.360 E0.03746
G1 X130.736 Y109.640 E0.01315
G1 X130.074 Y110.123 E0.02568
G1 X129.647 Y110.368 E0.01543
G1 X128.974 Y110.668 E0.02312
G1 X128.427 Y110.844 E0.01799
G1 X127.786 Y110.980 E0.02056
G1 X127.134 Y111.046 E0.02056
G1 X126.560 Y111.046 E0.01799
G1 X125.827 Y110.965 E0.02312
G1 X125.345 Y110.863 E0.01543
G1 X124.568 Y110.606 E0.02568
G1 X124.193 Y110.438 E0.01286
G1 X123.386 Y109.967 E0.02931
G1 X122.402 Y109.111 E0.04088
G1 X121.619 Y108.053 E0.04127
G1 X121.094 Y106.875 E0.04043
G1 X120.927 Y106.269 E0.01972
G1 X120.812 Y105.689 E0.01854
G1 X120.811 Y105.598 E0.00284
G1 X120.757 Y105.510 E0.00325
G1 X120.754 Y104.923 E0.01839
G1 X120.806 Y104.742 E0.00591
G1 X120.803 Y104.421 E0.01007
G1 X120.882 Y103.814 E0.01920
G1 X121.004 Y103.330 E0.01565
G1 X121.573 Y102.030 E0.04451
G1 X122.243 Y101.079 E0.03646
G1 X122.551 Y101.296 F10800.000
;TYPE:External perimeter
G1 F1200.000
G1 X123.398 Y100.493 E0.03660
G1 X124.361 Y99.899 E0.03548
G1 X124.704 Y99.746 E0.01177
G1 X125.444 Y99.502 E0.02444
G1 X125.887 Y99.407 E0.01419
G1 X126.595 Y99.331 E0.02234
G1 X127.115 Y99.331 E0.01628
G1 X127.728 Y99.393 E0.01932
G1 X128.330 Y99.521 E0.01932
G1 X128.839 Y99.685 E0.01675
G1 X129.476 Y99.969 E0.02188
G1 X129.869 Y100.194 E0.01419
G1 X130.499 Y100.653 E0.02445
G1 X130.775 Y100.901 E0.01161
G1 X131.361 Y101.555 E0.02755
G1 X131.997 Y102.605 E0.03848
G1 X132.393 Y103.773 E0.03869
G1 X132.527 Y104.998 E0.03864
G1 X132.411 Y106.140 E0.03598
G1 X132.069 Y107.234 E0.03593
G1 X131.514 Y108.236 E0.03593
G1 X130.778 Y109.096 E0.03548
G1 X130.499 Y109.347 E0.01177
G1 X129.869 Y109.806 E0.02444
G1 X129.476 Y110.031 E0.01419
G1 X128.839 Y110.315 E0.02188
G1 X128.330 Y110.479 E0.01675
G1 X127.728 Y110.607 E0.01932
G1 X127.115 Y110.669 E0.01932
G1 X126.580 Y110.669 E0.01675
G1 X125.887 Y110.593 E0.02188
G1 X125.444 Y110.498 E0.01419
G1 X124.704 Y110.254 E0.02444
G1 X124.366 Y110.102 E0.01162
G1 X123.607 Y109.659 E0.02755
G1 X122.681 Y108.853 E0.03848
G1 X121.947 Y107.862 E0.03869
G1 X121.450 Y106.747 E0.03825
G1 X121.294 Y106.182 E0.01839
G1 X121.189 Y105.649 E0.01703
G1 X121.187 Y105.489 E0.00504
G1 X121.133 Y105.402 E0.00319
G1 X121.131 Y104.976 E0.01337
G1 X121.184 Y104.794 E0.00595
G1 X121.180 Y104.444 E0.01098
G1 X121.253 Y103.885 E0.01766
G1 X121.362 Y103.453 E0.01397
G1 X121.903 Y102.216 E0.04234
G1 X122.516 Y101.345 E0.03339
G1 X122.418 Y100.919 F10800.000
;WIPE_START
G1 F8640.000
G1 X123.398 Y100.493 E-0.28312
G1 X124.361 Y99.899 E-0.26127
G1 X124.704 Y99.746 E-0.08668
G1 X125.444 Y99.502 E-0.17999
G1 X125.887 Y99.407 E-0.10453
G1 X126.595 Y99.331 E-0.16451
G1 X127.115 Y99.331 E-0.11990
G1 X127.675 Y99.388 E-0.12999
;WIPE_END
G1 E-0.07000 F2100.000
G1 Z0.400 F10800.000
G1 X120.536 Y99.569
G1 Z0.200
G1 E1.40000 F2100.000
;TYPE:Perimeter
G1 F1200.000
G1 X120.679 Y99.565 E0.00449
G1 X121.435 Y98.862 E0.03236
G1 X121.734 Y98.405 E0.01714
G1 X122.682 Y97.767 E0.03581
G1 X123.007 Y97.589 E0.01164
G1 X123.804 Y97.228 E0.02742
G1 X124.221 Y97.077 E0.01389
G1 X124.994 Y96.861 E0.02517
G1 X125.499 Y96.762 E0.01615
G1 X126.225 Y96.676 E0.02291
G1 X126.811 Y96.652 E0.01840
G1 X127.470 Y96.675 E0.02066
G1 X128.124 Y96.750 E0.02066
G1 X128.701 Y96.860 E0.01840
G1 X129.406 Y97.053 E0.02291
G1 X129.891 Y97.226 E0.01615
G1 X130.624 Y97.554 E0.02517
G1 X131.013 Y97.764 E0.01389
G1 X131.747 Y98.240 E0.02742
G1 X132.043 Y98.464 E0.01164
G1 X132.750 Y99.094 E0.02967
G1 X132.957 Y99.309 E0.00938
G1 X133.589 Y100.076 E0.03115
G1 X134.281 Y101.201 E0.04142
G1 X134.785 Y102.414 E0.04118
G1 X135.093 Y103.691 E0.04118
G1 X135.196 Y105.002 E0.04123
G1 X135.103 Y106.244 E0.03908
G1 X134.825 Y107.461 E0.03912
G1 X134.369 Y108.622 E0.03912
G1 X133.899 Y109.436 E0.02948
G1 X133.758 Y109.461 E0.00449
G1 X133.114 Y110.268 E0.03236
G1 X133.011 Y110.492 E0.00773
G1 X132.955 Y110.500 E0.00178
G1 X132.229 Y111.173 E0.03106
G1 X131.955 Y111.602 E0.01595
G1 X131.747 Y111.760 E0.00819
G1 X131.013 Y112.236 E0.02742
G1 X130.624 Y112.446 E0.01389
G1 X129.891 Y112.774 E0.02517
G1 X129.406 Y112.947 E0.01615
G1 X128.701 Y113.140 E0.02291
G1 X128.124 Y113.250 E0.01840
G1 X127.470 Y113.325 E0.02066
G1 X126.811 Y113.348 E0.02066
G1 X126.225 Y113.324 E0.01840
G1 X125.499 Y113.238 E0.02291
G1 X124.994 Y113.139 E0.01615
G1 X124.221 Y112.923 E0.02517
G1 X123.804 Y112.772 E0.01389
G1 X123.007 Y112.411 E0.02742
G1 X122.682 Y112.233 E0.01164
G1 X121.909 Y111.727 E0.02894
G1 X120.909 Y110.862 E0.04147
G1 X120.063 Y109.857 E0.04118
G1 X119.385 Y108.732 E0.04118
G1 X118.892 Y107.515 E0.04118
G1 X118.598 Y106.245 E0.04089
G1 X118.551 Y105.641 E0.01899
G1 X118.646 Y105.197 E0.01422
G1 X118.490 Y104.673 E0.01717
G1 X118.597 Y103.781 E0.02814
G1 X118.873 Y102.547 E0.03967
G1 X119.327 Y101.385 E0.03910
G1 X119.950 Y100.304 E0.03912
G1 X120.498 Y99.616 E0.02760
;WIPE_START
G1 F8640.000
G1 X120.679 Y99.565 E-0.04326
G1 X121.435 Y98.862 E-0.23834
G1 X121.734 Y98.405 E-0.12622
G1 X122.682 Y97.767 E-0.26375
G1 X123.007 Y97.589 E-0.08571
G1 X123.804 Y97.228 E-0.20193
G1 X124.221 Y97.077 E-0.10232
G1 X124.994 Y96.861 E-0.18533
G1 X125.347 Y96.792 E-0.08313
;WIPE_END
G1 E-0.07000 F2100.000
G1 Z0.400 F10800.000
G1 X118.257 Y105.212
G1 Z0.200
G1 E1.40000 F2100.000
;TYPE:External perimeter
G1 F1200.000
G1 X118.106 Y104.705 E0.01659
G1 X118.225 Y103.718 E0.03118
G1 X118.511 Y102.436 E0.04117
G1 X118.986 Y101.222 E0.04090
G1 X119.638 Y100.092 E0.04090
G1 X120.350 Y99.196 E0.03587
G1 X120.526 Y99.192 E0.00553
G1 X121.144 Y98.617 E0.02646
G1 X121.454 Y98.145 E0.01771
G1 X121.672 Y97.978 E0.00861
G1 X122.488 Y97.444 E0.03058
G1 X122.839 Y97.252 E0.01255
G1 X123.662 Y96.878 E0.02833
G1 X124.106 Y96.718 E0.01480
G1 X124.907 Y96.494 E0.02607
G1 X125.440 Y96.389 E0.01706
G1 X126.195 Y96.300 E0.02382
G1 X126.810 Y96.275 E0.01931
G1 X127.498 Y96.299 E0.02157
G1 X128.181 Y96.377 E0.02157
G1 X128.786 Y96.492 E0.01931
G1 X129.519 Y96.693 E0.02382
G1 X130.031 Y96.876 E0.01706
G1 X130.790 Y97.215 E0.02607
G1 X131.206 Y97.440 E0.01480
G1 X131.964 Y97.931 E0.02833
G1 X132.283 Y98.173 E0.01255
G1 X133.011 Y98.822 E0.03058
G1 X133.239 Y99.058 E0.01029
G1 X133.897 Y99.856 E0.03243
G1 X134.618 Y101.029 E0.04317
G1 X135.145 Y102.297 E0.04305
G1 X135.466 Y103.631 E0.04304
G1 X135.574 Y105.001 E0.04307
G1 X135.477 Y106.301 E0.04087
G1 X135.186 Y107.572 E0.04090
G1 X134.710 Y108.786 E0.04090
G1 X134.138 Y109.777 E0.03587
G1 X133.964 Y109.808 E0.00553
G1 X133.438 Y110.467 E0.02646
G1 X133.267 Y110.839 E0.01281
G1 X133.123 Y110.858 E0.00454
G1 X132.521 Y111.417 E0.02578
G1 X132.237 Y111.862 E0.01654
G1 X131.964 Y112.069 E0.01075
G1 X131.206 Y112.560 E0.02833
G1 X130.790 Y112.785 E0.01480
G1 X130.031 Y113.124 E0.02607
G1 X129.519 Y113.307 E0.01706
G1 X128.786 Y113.508 E0.02382
G1 X128.181 Y113.623 E0.01931
G1 X127.498 Y113.701 E0.02157
G1 X126.810 Y113.725 E0.02157
G1 X126.195 Y113.700 E0.01931
G1 X125.440 Y113.611 E0.02382
G1 X124.907 Y113.506 E0.01706
G1 X124.106 Y113.282 E0.02607
G1 X123.662 Y113.122 E0.01480
G1 X122.839 Y112.748 E0.02833
G1 X122.488 Y112.556 E0.01255
G1 X121.682 Y112.029 E0.03020
G1 X120.640 Y111.127 E0.04320
G1 X119.756 Y110.077 E0.04305
G1 X119.047 Y108.902 E0.04304
G1 X118.531 Y107.629 E0.04305
G1 X118.223 Y106.296 E0.04289
G1 X118.205 Y105.915 E0.01196
G1 X118.168 Y105.624 E0.00919
G1 X118.245 Y105.271 E0.01134
G1 X118.565 Y104.957 F10800.000
;WIPE_START
G1 F8640.000
G1 X118.106 Y104.705 E-0.13446
G1 X118.225 Y103.718 E-0.22962
G1 X118.511 Y102.436 E-0.30319
G1 X118.986 Y101.222 E-0.30116
G1 X119.638 Y100.092 E-0.30118
G1 X119.800 Y99.887 E-0.06038
;WIPE_END
G1 E-0.07000 F2100.000
G1 Z0.400 F10800.000
G1 X131.401 Y98.150
G1 Z0.200
G1 E1.40000 F2100.000
;TYPE:Solid infill
;WIDTH:0.426752
G1 F1200.000
G1 X132.746 Y99.498 E0.06076
G1 X133.358 Y100.240 E0.03072
G1 X134.013 Y101.305 E0.03988
G1 X130.536 Y97.828 E0.15694
G1 X129.786 Y97.488 E0.02629
G1 X129.581 Y97.416 E0.00693
G1 X134.408 Y102.242 E0.21786
G1 X134.515 Y102.502 E0.00897
G1 X134.639 Y103.017 E0.01691
G1 X128.804 Y97.181 E0.26339
G1 X128.116 Y97.036 E0.02244
G1 X134.812 Y103.732 E0.30221
G1 X134.859 Y104.322 E0.01889
G1 X132.196 Y101.659 E0.12020
G1 X131.894 Y101.160 E0.01860
G1 X131.242 Y100.433 E0.03117
G1 X130.914 Y100.140 E0.01404
G1 X130.228 Y99.640 E0.02710
G1 X130.107 Y99.570 E0.00445
G1 X127.500 Y96.963 E0.11767
G1 X126.934 Y96.940 E0.01810
G1 X129.055 Y99.061 E0.09576
G1 X128.500 Y98.883 E0.01860
G1 X128.289 Y98.838 E0.00689
G1 X126.403 Y96.952 E0.08514
G1 X125.907 Y96.998 E0.01590
G1 X127.628 Y98.720 E0.07769
G1 X127.037 Y98.671 E0.01894
G1 X125.430 Y97.064 E0.07254
G1 X125.059 Y97.137 E0.01205
G1 X124.981 Y97.158 E0.00258
G1 X126.500 Y98.678 E0.06858
G1 X126.010 Y98.730 E0.01574
G1 X124.557 Y97.277 E0.06560
G1 X124.143 Y97.406 E0.01383
G1 X125.543 Y98.806 E0.06319
G1 X125.111 Y98.917 E0.01423
G1 X123.755 Y97.561 E0.06122
G1 X123.381 Y97.730 E0.01309
G1 X124.703 Y99.052 E0.05966
G1 X124.309 Y99.200 E0.01345
G1 X123.016 Y97.907 E0.05837
G1 X122.677 Y98.111 E0.01262
G1 X123.946 Y99.380 E0.05728
G1 X123.610 Y99.587 E0.01259
G1 X122.353 Y98.330 E0.05677
G1 X122.028 Y98.548 E0.01248
G1 X123.275 Y99.794 E0.05626
G1 X122.948 Y100.011 E0.01250
G1 X121.783 Y98.846 E0.05257
G1 X121.653 Y99.046 E0.00763
G1 X121.543 Y99.148 E0.00479
G1 X122.668 Y100.274 E0.05081
G1 X122.389 Y100.537 E0.01226
G1 X121.261 Y99.410 E0.05088
G1 X120.980 Y99.671 E0.01226
G1 X122.109 Y100.800 E0.05096
