; generated by PrusaSlicer 2.3.1+linux-x64 on 2021-05-21 at 05:44:11 UTC

; 

; external perimeters extrusion width = 0.45mm
; perimeters extrusion width = 0.45mm
; infill extrusion width = 0.45mm
; solid infill extrusion width = 0.45mm
; top infill extrusion width = 0.40mm
; first layer extrusion width = 0.42mm

M73 P0 R137
M73 Q0 S138
M201 X1000 Y1000 Z200 E5000 ; sets maximum accelerations, mm/sec^2
M203 X200 Y200 Z12 E120 ; sets maximum feedrates, mm/sec
M204 P1250 R1250 T1250 ; sets acceleration (P, T) and retract acceleration (R), mm/sec^2
M205 X8.00 Y8.00 Z0.40 E4.50 ; sets the jerk limits, mm/sec
M205 S0 T0 ; sets the minimum extruding and travel feed rate, mm/sec
M107
;TYPE:Custom
M862.3 P "MK3" ; printer model check
M862.1 P0.4 ; nozzle diameter check
M115 U3.9.3 ; tell printer latest fw version
G90 ; use absolute coordinates
M83 ; extruder relative mode
M104 S230 ; set extruder temp
M140 S85 ; set bed temp
M190 S85 ; wait for bed temp
M109 S230 ; wait for extruder temp
G28 W ; home all without mesh bed level
G80 ; mesh bed leveling
G1 Y-3.0 F1000.0 ; go outside print area
G92 E0.0
G1 X60.0 E9.0 F1000.0 ; intro line
G1 X100.0 E12.5 F1000.0 ; intro line
G92 E0.0
M221 S95

; Don't change E values below. Excessive value can damage the printer.
M907 E430 ; set extruder motor current
G21 ; set units to millimeters
G90 ; use absolute coordinates
M83 ; use relative distances for extrusion
M900 K0.08 ; Filament gcode LA 1.5
M900 K45 ; Filament gcode LA 1.0
;LAYER_CHANGE
;Z:0.2
;HEIGHT:0.2
;BEFORE_LAYER_CHANGE
G92 E0.0
;0.2


G1 E-1.40000 F2100.000
G1 Z0.200 F10800.000
;AFTER_LAYER_CHANGE
;0.2
G1 Z0.400
G1 X18.027 Y26.087
G1 Z0.200
G1 E1.40000 F2100.000
M204 S1000
;TYPE:Skirt
;WIDTH:0.42
G1 F1200.000
G1 X18.308 Y25.374 E0.02402
G1 X18.805 Y24.786 E0.02414
G1 X19.502 Y24.372 E0.02543
G1 X20.298 Y24.217 E0.02543
G1 X45.353 Y24.216 E0.78556
G1 X71.069 Y24.283 E0.80633
G1 X228.962 Y30.242 E4.95412
G1 X229.686 Y30.523 E0.02437
G1 X230.282 Y31.023 E0.02437
G1 X230.684 Y31.688 E0.02437
G1 X230.850 Y32.448 E0.02437
G1 X230.853 Y46.184 E0.43070
G1 X230.649 Y63.024 E0.52802
G1 X230.369 Y63.745 E0.02426
G1 X229.873 Y64.338 E0.02426
G1 X229.216 Y64.739 E0.02414
G1 X228.461 Y64.909 E0.02426
G1 X179.318 Y66.022 E1.54125
G1 X153.163 Y66.409 E0.82014
G1 X126.482 Y66.638 E0.83661
G1 X71.848 Y66.101 E1.71309
G1 X20.040 Y47.828 E1.72249
G1 X19.359 Y47.445 E0.02449
G1 X18.841 Y46.865 E0.02437
G1 X18.583 Y46.311 E0.01917
G1 X18.475 Y45.705 E0.01929
G1 X17.972 Y28.598 E0.53661
G1 X18.025 Y26.147 E0.07689
; printing object rough_needleclamp_top.stl id:1 copy 6
;WIPE_START
G1 F8640.000
G1 X18.308 Y25.374 E-0.18994
G1 X18.805 Y24.786 E-0.17775
G1 X19.502 Y24.372 E-0.18729
G1 X20.298 Y24.217 E-0.18729
G1 X22.844 Y24.217 E-0.58772
;WIPE_END
G1 E-0.07000 F2100.000
G1 Z0.400 F10800.000
G1 X204.487 Y50.101
G1 Z0.200
G1 E1.40000 F2100.000
;TYPE:Perimeter
G1 F1200.000
G1 X204.808 Y50.101 E0.01009
G1 X204.808 Y51.100 E0.03133
G1 X205.431 Y53.272 E0.07085
G1 X205.158 Y53.272 E0.00854
G1 X205.158 Y59.701 E0.20156
G1 X226.487 Y59.701 E0.66873
G1 X226.487 Y53.272 E0.20156
G1 X226.214 Y53.272 E0.00854
G1 X226.837 Y51.100 E0.07085
G1 X226.837 Y50.101 E0.03133
G1 X227.158 Y50.101 E0.01009
G1 X227.158 Y61.372 E0.35342
G1 X204.487 Y61.372 E0.71085
G1 X204.487 Y50.161 E0.35153
;WIPE_START
G1 F8640.000
G1 X204.808 Y50.101 E-0.07556
G1 X204.808 Y51.100 E-0.23075
G1 X205.431 Y53.272 E-0.52179
G1 X205.158 Y53.272 E-0.06291
G1 X205.158 Y55.173 E-0.43900
;WIPE_END
G1 E-0.07000 F2100.000
G1 Z0.400 F10800.000
G1 X205.535 Y53.649
G1 Z0.200
G1 E1.40000 F2100.000
G1 F1200.000
G1 X205.535 Y59.323 E0.17791
G1 X226.109 Y59.323 E0.64509
G1 X226.109 Y53.649 E0.17791
G1 X225.714 Y53.649 E0.01241
G1 X226.459 Y51.047 E0.08488
G1 X226.459 Y49.723 E0.04150
G1 X227.535 Y49.723 E0.03373
G1 X227.535 Y61.749 E0.37706
G1 X204.535 Y61.749 E0.72115
G1 X204.535 Y62.249 E0.01568
G1 X204.109 Y62.249 E0.01335
G1 X204.109 Y49.723 E0.39274
G1 X205.185 Y49.723 E0.03373
G1 X205.185 Y51.047 E0.04150
G1 X205.931 Y53.649 E0.08488
G1 X205.595 Y53.649 E0.01052
G1 X205.912 Y54.026 F10800.000
;TYPE:External perimeter
G1 F1200.000
G1 X205.912 Y58.946 E0.15426
G1 X225.732 Y58.946 E0.62144
G1 X225.732 Y54.026 E0.15426
G1 X225.213 Y54.026 E0.01627
G1 X226.082 Y50.994 E0.09891
G1 X226.082 Y49.346 E0.05166
G1 X227.912 Y49.346 E0.05738
G1 X227.912 Y62.126 E0.40071
M73 P0 R136
G1 X204.912 Y62.126 E0.72115
G1 X204.912 Y62.626 E0.01568
G1 X203.732 Y62.626 E0.03700
G1 X203.732 Y49.346 E0.41639
G1 X205.562 Y49.346 E0.05738
G1 X205.562 Y50.994 E0.05166
G1 X206.431 Y54.026 E0.09891
G1 X205.972 Y54.026 E0.01439
G1 X205.574 Y54.239 F10800.000
;WIPE_START
G1 F8640.000
G1 X205.912 Y58.946 E-1.13613
G1 X206.752 Y58.946 E-0.19387
;WIPE_END
G1 E-0.07000 F2100.000
G1 Z0.400 F10800.000
G1 X204.822 Y53.084
G1 Z0.200
G1 E1.40000 F2100.000
;TYPE:Gap fill
;WIDTH:0.385254
G1 F1200.000
G1 X204.846 Y53.015 E0.00206
;WIDTH:0.432285
G1 X204.894 Y52.878 E0.00469
G1 X204.845 Y52.527 E0.01148
;WIDTH:0.335438
G1 X204.795 Y52.176 E0.00862
;WIDTH:0.238591
G1 X204.746 Y51.825 E0.00577
;WIDTH:0.141745
G1 X204.697 Y51.474 E0.00291
;WIPE_START
G1 F8640.000
G1 X204.746 Y51.825 E-0.08185
;WIPE_END
G1 E-1.31815 F2100.000
G1 Z0.400 F10800.000
G1 X204.822 Y53.084
G1 Z0.200
G1 E1.40000 F2100.000
;WIDTH:0.337526
G1 F1200.000
G1 X204.822 Y59.889 E0.16671
;WIPE_START
G1 F8640.000
G1 X204.822 Y54.129 E-1.33000
;WIPE_END
G1 E-0.07000 F2100.000
G1 Z0.400 F10800.000
G1 X226.084 Y59.814
G1 Z0.200
G1 E1.40000 F2100.000
;TYPE:Solid infill
;WIDTH:0.425043
G1 F1200.000
G1 X226.875 Y60.605 E0.03558
G1 X226.875 Y61.089 E0.01538
G1 X226.819 Y61.089 E0.00179
G1 X225.713 Y59.983 E0.04970
G1 X225.172 Y59.983 E0.01717
G1 X226.279 Y61.089 E0.04970
G1 X225.738 Y61.089 E0.01717
G1 X224.632 Y59.983 E0.04970
M73 Q0 S137
G1 X224.092 Y59.983 E0.01717
G1 X225.198 Y61.089 E0.04970
G1 X224.657 Y61.089 E0.01717
G1 X223.551 Y59.983 E0.04970
G1 X223.011 Y59.983 E0.01717
G1 X224.117 Y61.089 E0.04970
G1 X223.577 Y61.089 E0.01717
G1 X222.470 Y59.983 E0.04970
G1 X221.930 Y59.983 E0.01717
G1 X223.036 Y61.089 E0.04970
G1 X222.496 Y61.089 E0.01717
G1 X221.390 Y59.983 E0.04970
G1 X220.849 Y59.983 E0.01717
G1 X221.955 Y61.089 E0.04970
G1 X221.415 Y61.089 E0.01717
G1 X220.309 Y59.983 E0.04970
G1 X219.768 Y59.983 E0.01717
G1 X220.875 Y61.089 E0.04970
G1 X220.334 Y61.089 E0.01717
G1 X219.228 Y59.983 E0.04970
G1 X218.688 Y59.983 E0.01717
G1 X219.794 Y61.089 E0.04970
G1 X219.253 Y61.089 E0.01717
G1 X218.147 Y59.983 E0.04970
G1 X217.607 Y59.983 E0.01717
G1 X218.713 Y61.089 E0.04970
G1 X218.173 Y61.089 E0.01717
G1 X217.066 Y59.983 E0.04970
G1 X216.526 Y59.983 E0.01717
G1 X217.632 Y61.089 E0.04970
G1 X217.092 Y61.089 E0.01717
G1 X215.986 Y59.983 E0.04970
G1 X215.445 Y59.983 E0.01717
G1 X216.551 Y61.089 E0.04970
G1 X216.011 Y61.089 E0.01717
G1 X214.905 Y59.983 E0.04970
G1 X214.364 Y59.983 E0.01717
G1 X215.470 Y61.089 E0.04970
G1 X214.930 Y61.089 E0.01717
G1 X213.824 Y59.983 E0.04970
G1 X213.284 Y59.983 E0.01717
G1 X214.390 Y61.089 E0.04970
G1 X213.849 Y61.089 E0.01717
G1 X212.743 Y59.983 E0.04970
G1 X212.203 Y59.983 E0.01717
G1 X213.309 Y61.089 E0.04970
G1 X212.768 Y61.089 E0.01717
G1 X211.662 Y59.983 E0.04970
G1 X211.122 Y59.983 E0.01717
G1 X212.228 Y61.089 E0.04970
G1 X211.688 Y61.089 E0.01717
G1 X210.582 Y59.983 E0.04970
G1 X210.041 Y59.983 E0.01717
G1 X211.147 Y61.089 E0.04970
G1 X210.607 Y61.089 E0.01717
G1 X209.501 Y59.983 E0.04970
G1 X208.960 Y59.983 E0.01717
G1 X210.066 Y61.089 E0.04970
G1 X209.526 Y61.089 E0.01717
G1 X208.420 Y59.983 E0.04970
G1 X207.880 Y59.983 E0.01717
G1 X208.986 Y61.089 E0.04970
G1 X208.445 Y61.089 E0.01717
G1 X207.339 Y59.983 E0.04970
G1 X206.799 Y59.983 E0.01717
G1 X207.905 Y61.089 E0.04970
G1 X207.364 Y61.089 E0.01717
G1 X206.258 Y59.983 E0.04970
G1 X205.718 Y59.983 E0.01717
G1 X206.824 Y61.089 E0.04970
G1 X206.284 Y61.089 E0.01717
G1 X205.274 Y60.080 E0.04537
G1 X205.274 Y60.172 E0.00293
G1 X204.826 Y60.172 E0.01424
G1 X205.743 Y61.089 E0.04123
G1 X205.203 Y61.089 E0.01717
G1 X204.600 Y60.486 E0.02710
;WIPE_START
G1 F8640.000
G1 X205.203 Y61.089 E-0.19697
G1 X205.743 Y61.089 E-0.12478
G1 X204.826 Y60.172 E-0.29963
G1 X205.274 Y60.172 E-0.10351
G1 X205.274 Y60.080 E-0.02127
G1 X206.284 Y61.089 E-0.32971
G1 X206.824 Y61.089 E-0.12478
G1 X206.428 Y60.693 E-0.12935
;WIPE_END
G1 E-0.07000 F2100.000
G1 Z0.400 F10800.000
G1 X226.822 Y59.889
G1 Z0.200
G1 E1.40000 F2100.000
;TYPE:Gap fill
;WIDTH:0.337526
G1 F1200.000
G1 X226.822 Y53.084 E0.16671
;WIDTH:0.385253
G1 X226.799 Y53.015 E0.00206
;WIDTH:0.432283
G1 X226.751 Y52.878 E0.00469
G1 X226.800 Y52.527 E0.01148
;WIDTH:0.335437
G1 X226.849 Y52.176 E0.00862
;WIDTH:0.23859
G1 X226.899 Y51.825 E0.00577
;WIDTH:0.141744
G1 X226.948 Y51.474 E0.00291
; stop printing object rough_needleclamp_top.stl id:1 copy 6
; printing object rough_needleclamp_top.stl id:1 copy 5
;WIPE_START
G1 F8640.000
G1 X226.899 Y51.825 E-0.08185
;WIPE_END
G1 E-1.31815 F2100.000
G1 Z0.400 F10800.000
G1 X205.312 Y36.905
G1 Z0.200
G1 E1.40000 F2100.000
;TYPE:Perimeter
;WIDTH:0.42
G1 F1200.000
G1 X205.312 Y43.333 E0.20156
G1 X226.640 Y43.333 E0.66873
G1 X226.640 Y36.905 E0.20156
G1 X226.368 Y36.905 E0.00854
G1 X226.990 Y34.733 E0.07085
G1 X226.990 Y33.733 E0.03133
G1 X227.312 Y33.733 E0.01009
G1 X227.312 Y45.005 E0.35342
G1 X204.640 Y45.005 E0.71085
G1 X204.640 Y33.733 E0.35342
G1 X204.962 Y33.733 E0.01009
G1 X204.962 Y34.733 E0.03133
G1 X205.584 Y36.905 E0.07085
G1 X205.372 Y36.905 E0.00666
G1 X205.689 Y37.282 F10800.000
G1 F1200.000
G1 X205.689 Y42.956 E0.17791
G1 X226.263 Y42.956 E0.64509
G1 X226.263 Y37.282 E0.17791
G1 X225.867 Y37.282 E0.01241
G1 X226.613 Y34.680 E0.08488
G1 X226.613 Y33.356 E0.04150
G1 X227.689 Y33.356 E0.03373
G1 X227.689 Y45.382 E0.37706
G1 X204.689 Y45.382 E0.72115
G1 X204.689 Y45.882 E0.01568
G1 X204.263 Y45.882 E0.01335
G1 X204.263 Y33.356 E0.39274
G1 X205.339 Y33.356 E0.03373
G1 X205.339 Y34.680 E0.04150
G1 X206.084 Y37.282 E0.08488
G1 X205.749 Y37.282 E0.01052
G1 X206.066 Y37.659 F10800.000
;TYPE:External perimeter
G1 F1200.000
G1 X206.066 Y42.579 E0.15426
G1 X225.886 Y42.579 E0.62144
G1 X225.886 Y37.659 E0.15426
G1 X225.367 Y37.659 E0.01627
G1 X226.236 Y34.627 E0.09891
G1 X226.236 Y32.979 E0.05166
G1 X228.066 Y32.979 E0.05738
G1 X228.066 Y45.759 E0.40071
G1 X205.066 Y45.759 E0.72115
G1 X205.066 Y46.259 E0.01568
G1 X203.886 Y46.259 E0.03700
G1 X203.886 Y32.979 E0.41639
G1 X205.716 Y32.979 E0.05738
G1 X205.716 Y34.627 E0.05166
G1 X206.585 Y37.659 E0.09891
G1 X206.126 Y37.659 E0.01439
G1 X205.727 Y37.872 F10800.000
;WIPE_START
G1 F8640.000
G1 X206.066 Y42.579 E-1.13613
G1 X206.905 Y42.579 E-0.19387
;WIPE_END
G1 E-0.07000 F2100.000
G1 Z0.400 F10800.000
G1 X204.976 Y36.716
G1 Z0.200
G1 E1.40000 F2100.000
;TYPE:Gap fill
;WIDTH:0.385254
G1 F1200.000
G1 X205.000 Y36.648 E0.00206
;WIDTH:0.432285
G1 X205.047 Y36.511 E0.00469
G1 X204.998 Y36.160 E0.01148
;WIDTH:0.335438
G1 X204.949 Y35.809 E0.00862
;WIDTH:0.238591
G1 X204.900 Y35.458 E0.00577
;WIDTH:0.141745
G1 X204.850 Y35.107 E0.00291
;WIPE_START
G1 F8640.000
G1 X204.900 Y35.458 E-0.08185
;WIPE_END
G1 E-1.31815 F2100.000
G1 Z0.400 F10800.000
G1 X204.976 Y36.716
G1 Z0.200
G1 E1.40000 F2100.000
;WIDTH:0.337526
G1 F1200.000
G1 X204.976 Y43.522 E0.16671
;WIPE_START
G1 F8640.000
G1 X204.976 Y37.762 E-1.33000
;WIPE_END
G1 E-0.07000 F2100.000
G1 Z0.400 F10800.000
G1 X226.237 Y43.446
G1 Z0.200
G1 E1.40000 F2100.000
;TYPE:Solid infill
;WIDTH:0.425043
G1 F1200.000
G1 X227.029 Y44.238 E0.03558
G1 X227.029 Y44.722 E0.01538
G1 X226.972 Y44.722 E0.00179
G1 X225.866 Y43.616 E0.04970
G1 X225.326 Y43.616 E0.01717
G1 X226.432 Y44.722 E0.04970
G1 X225.892 Y44.722 E0.01717
G1 X224.786 Y43.616 E0.04970
G1 X224.245 Y43.616 E0.01717
G1 X225.351 Y44.722 E0.04970
G1 X224.811 Y44.722 E0.01717
G1 X223.705 Y43.616 E0.04970
G1 X223.164 Y43.616 E0.01717
G1 X224.270 Y44.722 E0.04970
G1 X223.730 Y44.722 E0.01717
G1 X222.624 Y43.616 E0.04970
G1 X222.084 Y43.616 E0.01717
G1 X223.190 Y44.722 E0.04970
G1 X222.649 Y44.722 E0.01717
G1 X221.543 Y43.616 E0.04970
G1 X221.003 Y43.616 E0.01717
G1 X222.109 Y44.722 E0.04970
G1 X221.568 Y44.722 E0.01717
G1 X220.462 Y43.616 E0.04970
G1 X219.922 Y43.616 E0.01717
G1 X221.028 Y44.722 E0.04970
G1 X220.488 Y44.722 E0.01717
G1 X219.382 Y43.616 E0.04970
G1 X218.841 Y43.616 E0.01717
G1 X219.947 Y44.722 E0.04970
G1 X219.407 Y44.722 E0.01717
G1 X218.301 Y43.616 E0.04970
G1 X217.760 Y43.616 E0.01717
G1 X218.866 Y44.722 E0.04970
G1 X218.326 Y44.722 E0.01717
G1 X217.220 Y43.616 E0.04970
G1 X216.679 Y43.616 E0.01717
G1 X217.786 Y44.722 E0.04970
G1 X217.245 Y44.722 E0.01717
G1 X216.139 Y43.616 E0.04970
G1 X215.599 Y43.616 E0.01717
G1 X216.705 Y44.722 E0.04970
G1 X216.164 Y44.722 E0.01717
G1 X215.058 Y43.616 E0.04970
G1 X214.518 Y43.616 E0.01717
G1 X215.624 Y44.722 E0.04970
G1 X215.084 Y44.722 E0.01717
G1 X213.977 Y43.616 E0.04970
G1 X213.437 Y43.616 E0.01717
G1 X214.543 Y44.722 E0.04970
G1 X214.003 Y44.722 E0.01717
G1 X212.897 Y43.616 E0.04970
G1 X212.356 Y43.616 E0.01717
G1 X213.462 Y44.722 E0.04970
G1 X212.922 Y44.722 E0.01717
G1 X211.816 Y43.616 E0.04970
G1 X211.275 Y43.616 E0.01717
G1 X212.382 Y44.722 E0.04970
G1 X211.841 Y44.722 E0.01717
G1 X210.735 Y43.616 E0.04970
G1 X210.195 Y43.616 E0.01717
G1 X211.301 Y44.722 E0.04970
G1 X210.760 Y44.722 E0.01717
G1 X209.654 Y43.616 E0.04970
G1 X209.114 Y43.616 E0.01717
G1 X210.220 Y44.722 E0.04970
G1 X209.680 Y44.722 E0.01717
G1 X208.573 Y43.616 E0.04970
G1 X208.033 Y43.616 E0.01717
G1 X209.139 Y44.722 E0.04970
G1 X208.599 Y44.722 E0.01717
G1 X207.493 Y43.616 E0.04970
G1 X206.952 Y43.616 E0.01717
G1 X208.058 Y44.722 E0.04970
G1 X207.518 Y44.722 E0.01717
G1 X206.412 Y43.616 E0.04970
G1 X205.871 Y43.616 E0.01717
G1 X206.978 Y44.722 E0.04970
G1 X206.437 Y44.722 E0.01717
G1 X205.427 Y43.712 E0.04537
G1 X205.427 Y43.805 E0.00293
G1 X204.979 Y43.805 E0.01424
G1 X205.897 Y44.722 E0.04123
G1 X205.356 Y44.722 E0.01717
G1 X204.753 Y44.119 E0.02710
;WIPE_START
G1 F8640.000
G1 X205.356 Y44.722 E-0.19697
G1 X205.897 Y44.722 E-0.12478
G1 X204.979 Y43.805 E-0.29963
G1 X205.427 Y43.805 E-0.10351
G1 X205.427 Y43.712 E-0.02127
G1 X206.437 Y44.722 E-0.32971
G1 X206.978 Y44.722 E-0.12478
G1 X206.581 Y44.326 E-0.12935
;WIPE_END
G1 E-0.07000 F2100.000
G1 Z0.400 F10800.000
G1 X226.976 Y43.522
G1 Z0.200
G1 E1.40000 F2100.000
;TYPE:Gap fill
;WIDTH:0.337526
G1 F1200.000
G1 X226.976 Y36.716 E0.16671
;WIDTH:0.385253
G1 X226.952 Y36.648 E0.00206
;WIDTH:0.432283
G1 X226.904 Y36.511 E0.00469
G1 X226.954 Y36.160 E0.01148
;WIDTH:0.335437
G1 X227.003 Y35.809 E0.00862
;WIDTH:0.23859
G1 X227.052 Y35.458 E0.00577
;WIDTH:0.141744
G1 X227.101 Y35.107 E0.00291
; stop printing object rough_needleclamp_top.stl id:1 copy 5
; printing object rough_needleclamp_top.stl id:1 copy 4
;WIPE_START
G1 F8640.000
G1 X227.052 Y35.458 E-0.08185
;WIPE_END
G1 E-1.31815 F2100.000
G1 Z0.400 F10800.000
G1 X179.258 Y36.913
G1 Z0.200
G1 E1.40000 F2100.000
;TYPE:Perimeter
;WIDTH:0.42
G1 F1200.000
G1 X179.258 Y43.341 E0.20156
G1 X200.586 Y43.341 E0.66873
G1 X200.586 Y36.913 E0.20156
G1 X200.314 Y36.913 E0.00854
G1 X200.936 Y34.740 E0.07085
G1 X200.936 Y33.741 E0.03133
G1 X201.258 Y33.741 E0.01009
G1 X201.258 Y45.013 E0.35342
G1 X178.586 Y45.013 E0.71085
M73 Q1 S137
G1 X178.586 Y33.741 E0.35342
G1 X178.908 Y33.741 E0.01009
G1 X178.908 Y34.740 E0.03133
M73 P1 R136
G1 X179.530 Y36.913 E0.07085
G1 X179.318 Y36.913 E0.00666
G1 X179.635 Y37.290 F10800.000
G1 F1200.000
G1 X179.635 Y42.964 E0.17791
G1 X200.209 Y42.964 E0.64509
G1 X200.209 Y37.290 E0.17791
G1 X199.813 Y37.290 E0.01241
G1 X200.559 Y34.687 E0.08488
G1 X200.559 Y33.364 E0.04150
G1 X201.635 Y33.364 E0.03373
G1 X201.635 Y45.390 E0.37706
G1 X178.635 Y45.390 E0.72115
G1 X178.635 Y45.890 E0.01568
G1 X178.209 Y45.890 E0.01335
G1 X178.209 Y33.364 E0.39274
G1 X179.285 Y33.364 E0.03373
G1 X179.285 Y34.687 E0.04150
G1 X180.030 Y37.290 E0.08488
G1 X179.695 Y37.290 E0.01052
G1 X180.012 Y37.667 F10800.000
;TYPE:External perimeter
G1 F1200.000
G1 X180.012 Y42.587 E0.15426
G1 X199.832 Y42.587 E0.62144
G1 X199.832 Y37.667 E0.15426
