; generated by PrusaSlicer 2.2.0+linux-x64 on 2020-12-07 at 11:34:45 UTC

; 

; external perimeters extrusion width = 0.45mm
; perimeters extrusion width = 0.45mm
; infill extrusion width = 0.45mm
; solid infill extrusion width = 0.45mm
; top infill extrusion width = 0.40mm
; first layer extrusion width = 0.42mm

M73 P0 R28
M73 Q0 S29
M201 X1000 Y1000 Z200 E5000 ; sets maximum accelerations, mm/sec^2
M203 X200 Y200 Z12 E120 ; sets maximum feedrates, mm/sec
M204 P1250 R1250 T1250 ; sets acceleration (P, T) and retract acceleration (R), mm/sec^2
M205 X8.00 Y8.00 Z0.40 E4.50 ; sets the jerk limits, mm/sec
M205 S0 T0 ; sets the minimum extruding and travel feed rate, mm/sec
M107
M862.3 P "MK3S" ; printer model check
M862.1 P0.4 ; nozzle diameter check
M115 U3.9.1 ; tell printer latest fw version
G90 ; use absolute coordinates
M83 ; extruder relative mode
M104 S215 ; set extruder temp
M140 S60 ; set bed temp
M190 S60 ; wait for bed temp
M109 S215 ; wait for extruder temp
G28 W ; home all without mesh bed level
G80 ; mesh bed leveling
G1 Y-3.0 F1000.0 ; go outside print area
G92 E0.0
G1 X60.0 E9.0 F1000.0 ; intro line
M73 Q0 S28
M73 P0 R28
G1 X100.0 E12.5 F1000.0 ; intro line
G92 E0.0
M221 S95

; Don't change E values below. Excessive value can damage the printer.
M907 E430 ; set extruder motor current
G21 ; set units to millimeters
G90 ; use absolute coordinates
M83 ; use relative distances for extrusion
M900 K0.05 ; Filament gcode LA 1.5
M900 K30 ; Filament gcode LA 1.0
;BEFORE_LAYER_CHANGE
G92 E0.0
;0.2


G1 E-0.80000 F2100.00000
G1 Z0.600 F10800.000
;AFTER_LAYER_CHANGE
;0.2
G1 X89.263 Y95.455
G1 Z0.200
G1 E0.80000 F2100.00000
M204 S1000
G1 F1200.000
G1 X91.215 Y94.955 E0.06316
G1 X92.744 Y94.838 E0.04810
G1 X157.254 Y94.838 E2.02266
G1 X158.261 Y94.888 E0.03161
G1 X159.258 Y95.038 E0.03162
G1 X161.134 Y95.610 E0.06151
G1 X162.589 Y96.354 E0.05123
G1 X164.153 Y97.543 E0.06160
G1 X165.462 Y99.016 E0.06178
G1 X166.317 Y100.413 E0.05138
G1 X167.031 Y102.244 E0.06160
G1 X167.257 Y103.233 E0.03183
G1 X167.382 Y104.229 E0.03146
G1 X167.409 Y105.251 E0.03207
G1 X167.334 Y106.254 E0.03153
G1 X166.909 Y108.155 E0.06107
G1 X166.271 Y109.678 E0.05179
G1 X165.196 Y111.334 E0.06190
G1 X163.829 Y112.745 E0.06160
G1 X162.502 Y113.699 E0.05126
G1 X160.729 Y114.548 E0.06160
G1 X158.785 Y115.045 E0.06295
G1 X157.252 Y115.162 E0.04819
G1 X92.746 Y115.162 E2.02254
G1 X91.717 Y115.109 E0.03232
G1 X90.189 Y114.834 E0.04866
G1 X88.391 Y114.179 E0.06000
G1 X87.030 Y113.400 E0.04917
G1 X85.834 Y112.446 E0.04798
G1 X84.771 Y111.293 E0.04917
G1 X83.733 Y109.685 E0.06000
G1 X83.118 Y108.238 E0.04929
G1 X82.736 Y106.725 E0.04893
G1 X82.591 Y104.741 E0.06238
G1 X82.667 Y103.735 E0.03165
G1 X82.842 Y102.743 E0.03158
G1 X83.116 Y101.766 E0.03183
G1 X83.487 Y100.822 E0.03179
G1 X83.944 Y99.929 E0.03143
G1 X84.495 Y99.075 E0.03188
G1 X85.123 Y98.285 E0.03164
G1 X85.830 Y97.558 E0.03179
G1 X86.612 Y96.901 E0.03204
G1 X87.449 Y96.330 E0.03176
G1 X89.209 Y95.481 E0.06126
G1 F8640.000
G1 X91.215 Y94.955 E-0.47871
G1 X92.429 Y94.862 E-0.28129
G1 E-0.04000 F2100.00000
G1 Z0.800 F10800.000
G1 X90.187 Y102.510
G1 Z0.200
G1 E0.80000 F2100.00000
G1 F1200.000
G1 X90.453 Y102.263 E0.01140
G1 X90.737 Y102.048 E0.01117
G1 X91.041 Y101.862 E0.01117
G1 X91.362 Y101.708 E0.01117
G1 X91.697 Y101.586 E0.01117
G1 X92.042 Y101.498 E0.01117
G1 X92.394 Y101.445 E0.01117
G1 X92.733 Y101.428 E0.01063
G1 X157.428 Y101.432 E2.02848
G1 X157.782 Y101.467 E0.01117
G1 X158.132 Y101.538 E0.01117
G1 X158.472 Y101.643 E0.01117
G1 X158.800 Y101.781 E0.01117
G1 X159.113 Y101.951 E0.01117
G1 X159.407 Y102.152 E0.01117
G1 X159.680 Y102.381 E0.01116
G1 X159.928 Y102.634 E0.01112
G1 X160.247 Y103.055 E0.01656
G1 X160.429 Y103.370 E0.01142
G1 X160.576 Y103.695 E0.01117
G1 X160.689 Y104.032 E0.01117
G1 X160.769 Y104.380 E0.01117
G1 X160.813 Y104.733 E0.01117
G1 X160.822 Y105.089 E0.01117
G1 X160.795 Y105.444 E0.01117
G1 X160.733 Y105.795 E0.01117
G1 X160.637 Y106.138 E0.01117
G1 X160.507 Y106.469 E0.01117
G1 X160.344 Y106.786 E0.01116
G1 X160.152 Y107.084 E0.01112
G1 X159.813 Y107.489 E0.01656
G1 X159.547 Y107.737 E0.01142
G1 X159.263 Y107.952 E0.01117
G1 X158.959 Y108.138 E0.01117
G1 X158.631 Y108.295 E0.01140
G1 X158.139 Y108.461 E0.01629
G1 X157.782 Y108.533 E0.01140
G1 X157.428 Y108.568 E0.01117
G1 X92.572 Y108.568 E2.03352
G1 X92.218 Y108.533 E0.01117
G1 X91.868 Y108.462 E0.01117
G1 X91.528 Y108.357 E0.01117
G1 X91.200 Y108.219 E0.01117
G1 X90.887 Y108.049 E0.01117
G1 X90.593 Y107.848 E0.01117
G1 X90.320 Y107.619 E0.01116
G1 X90.072 Y107.366 E0.01112
G1 X89.753 Y106.945 E0.01656
G1 X89.571 Y106.630 E0.01142
G1 X89.424 Y106.305 E0.01117
G1 X89.311 Y105.968 E0.01117
G1 X89.231 Y105.620 E0.01117
G1 X89.187 Y105.267 E0.01117
G1 X89.178 Y104.911 E0.01117
G1 X89.205 Y104.556 E0.01117
G1 X89.267 Y104.205 E0.01117
G1 X89.363 Y103.862 E0.01117
G1 X89.493 Y103.531 E0.01117
G1 X89.656 Y103.214 E0.01117
G1 X89.853 Y102.908 E0.01140
G1 X90.148 Y102.556 E0.01440
G1 X90.437 Y102.799 F10800.000
G1 F1200.000
G1 X90.696 Y102.552 E0.01121
G1 X90.950 Y102.360 E0.00999
G1 X91.222 Y102.194 E0.00999
G1 X91.509 Y102.056 E0.00999
G1 X91.808 Y101.947 E0.00999
G1 X92.117 Y101.868 E0.00999
G1 X92.432 Y101.821 E0.00999
G1 X92.742 Y101.805 E0.00975
G1 X157.409 Y101.809 E2.02759
G1 X157.726 Y101.840 E0.00999
G1 X158.038 Y101.904 E0.00999
G1 X158.343 Y101.997 E0.00999
G1 X158.636 Y102.121 E0.00999
G1 X158.916 Y102.274 E0.00999
G1 X159.179 Y102.453 E0.00999
G1 X159.423 Y102.658 E0.00999
G1 X159.642 Y102.881 E0.00980
G1 X159.933 Y103.264 E0.01508
G1 X160.093 Y103.542 E0.01008
G1 X160.224 Y103.833 E0.00999
G1 X160.326 Y104.135 E0.00999
G1 X160.397 Y104.445 E0.00999
G1 X160.436 Y104.761 E0.00999
G1 X160.444 Y105.080 E0.00999
G1 X160.420 Y105.397 E0.00999
G1 X160.365 Y105.711 E0.00999
G1 X160.279 Y106.018 E0.00999
G1 X160.163 Y106.314 E0.00999
G1 X160.017 Y106.598 E0.00999
G1 X159.848 Y106.860 E0.00980
G1 X159.539 Y107.229 E0.01508
G1 X159.304 Y107.448 E0.01008
G1 X159.050 Y107.640 E0.00999
G1 X158.778 Y107.806 E0.00999
G1 X158.489 Y107.946 E0.01007
G1 X158.041 Y108.096 E0.01481
G1 X157.726 Y108.160 E0.01007
G1 X157.409 Y108.191 E0.00999
G1 X92.591 Y108.191 E2.03234
G1 X92.274 Y108.160 E0.00999
G1 X91.962 Y108.096 E0.00999
G1 X91.657 Y108.003 E0.00999
G1 X91.364 Y107.879 E0.00999
G1 X91.084 Y107.726 E0.00999
G1 X90.821 Y107.547 E0.00999
G1 X90.577 Y107.342 E0.00999
G1 X90.358 Y107.119 E0.00980
G1 X90.067 Y106.736 E0.01508
G1 X89.907 Y106.458 E0.01008
G1 X89.776 Y106.167 E0.00999
G1 X89.674 Y105.865 E0.00999
G1 X89.603 Y105.555 E0.00999
G1 X89.564 Y105.239 E0.00999
G1 X89.556 Y104.920 E0.00999
G1 X89.580 Y104.603 E0.00999
G1 X89.635 Y104.289 E0.00999
G1 X89.721 Y103.982 E0.00999
G1 X89.837 Y103.686 E0.00999
G1 X89.983 Y103.402 E0.00999
G1 X90.157 Y103.133 E0.01007
G1 X90.399 Y102.845 E0.01179
G1 X90.334 Y102.456 F10800.000
G1 F8640.000
G1 X90.696 Y102.552 E-0.09630
G1 X90.950 Y102.360 E-0.07355
G1 X91.222 Y102.194 E-0.07355
G1 X91.509 Y102.056 E-0.07355
G1 X91.808 Y101.947 E-0.07355
G1 X92.117 Y101.868 E-0.07355
G1 X92.432 Y101.821 E-0.07355
G1 X92.742 Y101.805 E-0.07177
G1 X93.395 Y101.805 E-0.15062
G1 E-0.04000 F2100.00000
G1 Z0.800 F10800.000
G1 X87.741 Y100.114
G1 Z0.200
G1 E0.80000 F2100.00000
G1 F1200.000
G1 X88.252 Y99.640 E0.02187
G1 X88.808 Y99.219 E0.02187
G1 X89.404 Y98.855 E0.02187
G1 X90.032 Y98.552 E0.02187
G1 X90.688 Y98.314 E0.02187
G1 X91.364 Y98.142 E0.02187
G1 X92.053 Y98.038 E0.02187
G1 X92.767 Y98.002 E0.02241
G1 X157.602 Y98.011 E2.03284
G1 X157.940 Y98.037 E0.01063
G1 X158.636 Y98.142 E0.02210
G1 X159.312 Y98.314 E0.02187
G1 X159.968 Y98.552 E0.02187
G1 X160.596 Y98.855 E0.02187
G1 X161.192 Y99.219 E0.02187
G1 X161.748 Y99.640 E0.02187
G1 X162.259 Y100.114 E0.02187
G1 X162.721 Y100.637 E0.02187
G1 X163.128 Y101.204 E0.02187
G1 X163.477 Y101.808 E0.02187
G1 X163.763 Y102.444 E0.02187
G1 X163.986 Y103.105 E0.02187
G1 X164.141 Y103.785 E0.02187
G1 X164.228 Y104.484 E0.02210
G1 X164.245 Y104.818 E0.01048
G1 X164.228 Y105.523 E0.02210
G1 X164.141 Y106.215 E0.02187
G1 X163.986 Y106.895 E0.02187
G1 X163.761 Y107.563 E0.02210
G1 X163.631 Y107.871 E0.01048
G1 X163.310 Y108.499 E0.02210
G1 X162.931 Y109.084 E0.02187
G1 X162.492 Y109.636 E0.02210
G1 X162.264 Y109.881 E0.01048
G1 X161.748 Y110.360 E0.02210
G1 X161.192 Y110.781 E0.02187
G1 X160.596 Y111.145 E0.02187
G1 X159.968 Y111.448 E0.02187
G1 X159.312 Y111.686 E0.02187
G1 X158.636 Y111.858 E0.02187
G1 X157.947 Y111.962 E0.02187
G1 X157.233 Y111.998 E0.02241
G1 X92.767 Y111.998 E2.02128
G1 X92.053 Y111.962 E0.02241
G1 X91.356 Y111.857 E0.02210
G1 X91.023 Y111.781 E0.01071
G1 X90.694 Y111.689 E0.01071
G1 X90.032 Y111.448 E0.02210
G1 X89.404 Y111.145 E0.02187
G1 X88.808 Y110.781 E0.02187
G1 X88.247 Y110.356 E0.02210
G1 X87.996 Y110.134 E0.01048
G1 X87.504 Y109.630 E0.02210
G1 X87.069 Y109.085 E0.02187
G1 X86.686 Y108.492 E0.02210
G1 X86.526 Y108.199 E0.01048
G1 X86.235 Y107.554 E0.02219
G1 X86.119 Y107.235 E0.01063
G1 X85.928 Y106.557 E0.02210
G1 X85.807 Y105.870 E0.02187
G1 X85.755 Y105.174 E0.02187
G1 X85.772 Y104.477 E0.02187
G1 X85.859 Y103.785 E0.02187
G1 X86.014 Y103.105 E0.02187
G1 X86.237 Y102.444 E0.02187
G1 X86.523 Y101.808 E0.02187
G1 X86.872 Y101.204 E0.02187
G1 X87.279 Y100.637 E0.02187
G1 X87.701 Y100.159 E0.01999
G1 X87.419 Y99.910 F10800.000
G1 F1200.000
G1 X88.010 Y99.351 E0.02551
G1 X88.596 Y98.907 E0.02305
G1 X89.223 Y98.523 E0.02305
G1 X89.885 Y98.204 E0.02305
G1 X90.576 Y97.953 E0.02305
G1 X91.289 Y97.772 E0.02305
G1 X92.016 Y97.662 E0.02305
G1 X92.758 Y97.625 E0.02329
G1 X157.616 Y97.634 E2.03357
G1 X157.982 Y97.662 E0.01151
G1 X158.711 Y97.772 E0.02313
G1 X159.424 Y97.953 E0.02305
G1 X160.115 Y98.204 E0.02305
G1 X160.777 Y98.523 E0.02305
G1 X161.404 Y98.907 E0.02305
G1 X161.990 Y99.351 E0.02305
G1 X162.529 Y99.851 E0.02305
G1 X163.016 Y100.402 E0.02305
G1 X163.445 Y100.999 E0.02305
G1 X163.812 Y101.636 E0.02305
G1 X164.115 Y102.306 E0.02305
G1 X164.349 Y103.003 E0.02305
G1 X164.513 Y103.719 E0.02305
G1 X164.604 Y104.451 E0.02313
G1 X164.622 Y104.814 E0.01137
G1 X164.604 Y105.551 E0.02313
G1 X164.513 Y106.281 E0.02305
G1 X164.349 Y106.997 E0.02305
G1 X164.114 Y107.697 E0.02313
G1 X163.973 Y108.031 E0.01137
G1 X163.637 Y108.687 E0.02313
G1 X163.238 Y109.305 E0.02305
G1 X162.778 Y109.882 E0.02313
G1 X162.531 Y110.147 E0.01137
G1 X161.990 Y110.649 E0.02313
G1 X161.404 Y111.093 E0.02305
G1 X160.777 Y111.477 E0.02305
G1 X160.115 Y111.796 E0.02305
G1 X159.424 Y112.047 E0.02305
G1 X158.711 Y112.228 E0.02305
G1 X157.984 Y112.338 E0.02305
G1 X157.242 Y112.375 E0.02329
G1 X92.758 Y112.375 E2.02187
G1 X92.016 Y112.338 E0.02329
G1 X91.286 Y112.228 E0.02313
G1 X90.579 Y112.048 E0.02289
G1 X89.885 Y111.796 E0.02313
G1 X89.223 Y111.477 E0.02305
G1 X88.596 Y111.093 E0.02305
G1 X88.008 Y110.648 E0.02313
G1 X87.736 Y110.408 E0.01137
G1 X87.221 Y109.880 E0.02313
G1 X86.762 Y109.305 E0.02305
G1 X86.362 Y108.685 E0.02313
G1 X86.189 Y108.367 E0.01137
G1 X85.886 Y107.696 E0.02307
G1 X85.760 Y107.351 E0.01151
G1 X85.560 Y106.641 E0.02313
G1 X85.433 Y105.917 E0.02305
G1 X85.378 Y105.184 E0.02305
G1 X85.396 Y104.449 E0.02305
G1 X85.487 Y103.719 E0.02305
G1 X85.651 Y103.003 E0.02305
G1 X85.885 Y102.306 E0.02305
G1 X86.188 Y101.636 E0.02305
G1 X86.555 Y100.999 E0.02305
G1 X86.984 Y100.402 E0.02305
G1 X87.379 Y99.955 E0.01870
G1 X87.807 Y100.006 F10800.000
G1 F8640.000
G1 X88.010 Y99.351 E-0.20168
G1 X88.596 Y98.907 E-0.16976
G1 X89.223 Y98.523 E-0.16976
G1 X89.885 Y98.204 E-0.16976
G1 X90.085 Y98.132 E-0.04905
G1 E-0.04000 F2100.00000
G1 Z0.800 F10800.000
G1 X86.942 Y108.680
G1 Z0.200
G1 E0.80000 F2100.00000
G1 F1200.000
G1 X88.198 Y109.936 E0.05589
G1 X88.426 Y110.137 E0.00956
G1 X88.968 Y110.547 E0.02140
G1 X89.539 Y110.896 E0.02106
G1 X89.838 Y111.040 E0.01043
G1 X86.706 Y107.908 E0.13937
G1 X86.497 Y107.447 E0.01592
G1 X86.352 Y107.020 E0.01420
G1 X90.735 Y111.403 E0.19503
G1 X91.093 Y111.507 E0.01173
G1 X91.454 Y111.586 E0.01161
G1 X86.171 Y106.303 E0.23507
G1 X86.076 Y105.673 E0.02004
G1 X92.084 Y111.681 E0.26731
G1 X92.647 Y111.709 E0.01774
G1 X86.040 Y105.102 E0.29399
G1 X86.053 Y104.580 E0.01643
G1 X93.358 Y111.885 E0.32505
G1 F8640.000
G1 X91.031 Y109.557 E-0.76000
G1 E-0.04000 F2100.00000
G1 Z0.800 F10800.000
G1 X163.065 Y101.322
G1 Z0.200
G1 E0.80000 F2100.00000
G1 F1200.000
G1 X162.047 Y100.303 E0.04532
G1 X161.566 Y99.857 E0.02065
G1 X161.032 Y99.453 E0.02106
G1 X160.461 Y99.104 E0.02106
G1 X160.174 Y98.965 E0.01003
G1 X163.290 Y102.081 E0.13865
G1 X163.500 Y102.547 E0.01608
G1 X163.641 Y102.968 E0.01397
G1 X159.274 Y98.601 E0.19433
G1 X158.553 Y98.415 E0.02342
G1 X163.829 Y103.691 E0.23477
G1 X163.923 Y104.320 E0.02000
G1 X157.923 Y98.320 E0.26697
G1 X157.362 Y98.294 E0.01767
G1 X163.960 Y104.893 E0.29360
G1 X163.947 Y105.415 E0.01643
G1 X156.827 Y98.294 E0.31684
G1 X156.292 Y98.294 E0.01684
G1 X163.896 Y105.898 E0.33835
G1 X163.819 Y106.356 E0.01462
G1 X155.756 Y98.294 E0.35874
G1 X155.221 Y98.294 E0.01684
G1 X158.188 Y101.260 E0.13200
G1 X157.825 Y101.187 E0.01165
G1 X157.552 Y101.160 E0.00862
G1 X154.686 Y98.294 E0.12752
G1 X154.151 Y98.294 E0.01684
G1 X157.006 Y101.149 E0.12704
G1 X156.471 Y101.149 E0.01684
G1 X153.616 Y98.294 E0.12704
G1 X153.080 Y98.294 E0.01684
G1 X155.935 Y101.149 E0.12704
G1 X155.400 Y101.149 E0.01684
G1 X152.545 Y98.294 E0.12704
G1 X152.010 Y98.293 E0.01684
G1 X154.865 Y101.149 E0.12705
G1 X154.330 Y101.149 E0.01684
G1 X151.475 Y98.293 E0.12705
G1 X150.940 Y98.293 E0.01684
G1 X153.795 Y101.149 E0.12705
G1 X153.260 Y101.149 E0.01684
G1 X150.404 Y98.293 E0.12705
G1 X149.869 Y98.293 E0.01684
G1 X152.724 Y101.149 E0.12705
G1 X152.189 Y101.149 E0.01684
G1 X149.334 Y98.293 E0.12706
G1 X148.799 Y98.293 E0.01684
G1 X151.654 Y101.148 E0.12706
G1 X151.119 Y101.148 E0.01684
G1 X148.263 Y98.293 E0.12706
G1 X147.728 Y98.293 E0.01684
G1 X150.584 Y101.148 E0.12706
G1 X150.049 Y101.148 E0.01684
G1 X147.193 Y98.293 E0.12707
G1 X146.658 Y98.293 E0.01684
G1 X149.513 Y101.148 E0.12707
G1 X148.978 Y101.148 E0.01684
G1 X146.123 Y98.293 E0.12707
G1 X145.587 Y98.293 E0.01684
G1 X148.443 Y101.148 E0.12707
G1 X147.908 Y101.148 E0.01684
G1 X145.052 Y98.292 E0.12707
M73 Q3 S27
G1 X144.517 Y98.292 E0.01684
G1 X147.373 Y101.148 E0.12708
G1 X146.838 Y101.148 E0.01684
G1 X143.982 Y98.292 E0.12708
G1 X143.447 Y98.292 E0.01684
G1 X146.302 Y101.148 E0.12708
M73 P3 R27
G1 X145.767 Y101.148 E0.01684
G1 X142.911 Y98.292 E0.12708
G1 X142.376 Y98.292 E0.01684
G1 X145.232 Y101.148 E0.12708
G1 X144.697 Y101.148 E0.01684
G1 X141.841 Y98.292 E0.12709
G1 X141.306 Y98.292 E0.01684
G1 X144.162 Y101.148 E0.12709
G1 X143.627 Y101.148 E0.01684
G1 X140.770 Y98.292 E0.12709
G1 X140.235 Y98.292 E0.01684
G1 X143.091 Y101.148 E0.12709
G1 X142.556 Y101.148 E0.01684
G1 X139.700 Y98.292 E0.12709
G1 X139.165 Y98.292 E0.01684
G1 X142.021 Y101.148 E0.12710
G1 X141.486 Y101.148 E0.01684
G1 X138.630 Y98.292 E0.12710
G1 X138.094 Y98.291 E0.01684
G1 X140.951 Y101.148 E0.12710
G1 X140.416 Y101.148 E0.01684
G1 X137.559 Y98.291 E0.12710
G1 X137.024 Y98.291 E0.01684
G1 X139.880 Y101.148 E0.12711
G1 X139.345 Y101.148 E0.01684
G1 X136.489 Y98.291 E0.12711
G1 X135.954 Y98.291 E0.01684
G1 X138.810 Y101.148 E0.12711
G1 X138.275 Y101.148 E0.01684
G1 X135.418 Y98.291 E0.12711
G1 X134.883 Y98.291 E0.01684
G1 X137.740 Y101.148 E0.12711
G1 X137.205 Y101.148 E0.01684
G1 X134.348 Y98.291 E0.12712
G1 X133.813 Y98.291 E0.01684
G1 X136.670 Y101.148 E0.12712
G1 X136.134 Y101.148 E0.01684
G1 X133.278 Y98.291 E0.12712
G1 X132.742 Y98.291 E0.01684
G1 X135.599 Y101.148 E0.12712
G1 X135.064 Y101.148 E0.01684
G1 X132.207 Y98.291 E0.12712
G1 X131.672 Y98.291 E0.01684
G1 X134.529 Y101.148 E0.12713
G1 X133.994 Y101.147 E0.01684
G1 X131.137 Y98.290 E0.12713
G1 X130.601 Y98.290 E0.01684
G1 X133.459 Y101.147 E0.12713
G1 X132.923 Y101.147 E0.01684
G1 X130.066 Y98.290 E0.12713
G1 X129.531 Y98.290 E0.01684
G1 X132.388 Y101.147 E0.12713
G1 X131.853 Y101.147 E0.01684
G1 X128.996 Y98.290 E0.12714
G1 X128.461 Y98.290 E0.01684
G1 X131.318 Y101.147 E0.12714
G1 X130.783 Y101.147 E0.01684
