; generated by PrusaSlicer 2.2.0+linux-x64 on 2020-12-07 at 06:22:06 UTC

; 

; external perimeters extrusion width = 0.45mm
; perimeters extrusion width = 0.45mm
; infill extrusion width = 0.45mm
; solid infill extrusion width = 0.45mm
; top infill extrusion width = 0.40mm
; first layer extrusion width = 0.42mm

M73 P0 R29
M73 Q0 S30
M201 X1000 Y1000 Z200 E5000 ; sets maximum accelerations, mm/sec^2
M203 X200 Y200 Z12 E120 ; sets maximum feedrates, mm/sec
M204 P1250 R1250 T1250 ; sets acceleration (P, T) and retract acceleration (R), mm/sec^2
M205 X8.00 Y8.00 Z0.40 E4.50 ; sets the jerk limits, mm/sec
M205 S0 T0 ; sets the minimum extruding and travel feed rate, mm/sec
M107
M862.3 P "MK3S" ; printer model check
M862.1 P0.4 ; nozzle diameter check
M115 U3.9.1 ; tell printer latest fw version
G90 ; use absolute coordinates
M83 ; extruder relative mode
M104 S215 ; set extruder temp
M140 S60 ; set bed temp
M190 S60 ; wait for bed temp
M109 S215 ; wait for extruder temp
G28 W ; home all without mesh bed level
G80 ; mesh bed leveling
G1 Y-3.0 F1000.0 ; go outside print area
G92 E0.0
G1 X60.0 E9.0 F1000.0 ; intro line
M73 Q0 S29
M73 P0 R29
G1 X100.0 E12.5 F1000.0 ; intro line
G92 E0.0
M221 S95

; Don't change E values below. Excessive value can damage the printer.
M907 E430 ; set extruder motor current
G21 ; set units to millimeters
G90 ; use absolute coordinates
M83 ; use relative distances for extrusion
M900 K0.05 ; Filament gcode LA 1.5
M900 K30 ; Filament gcode LA 1.0
;BEFORE_LAYER_CHANGE
G92 E0.0
;0.2


G1 E-0.80000 F2100.00000
G1 Z0.600 F10800.000
;AFTER_LAYER_CHANGE
;0.2
G1 X87.483 Y98.765
G1 Z0.200
G1 E0.80000 F2100.00000
M204 S1000
G1 F1200.000
G1 X88.782 Y97.869 E0.04949
G1 X90.269 Y97.225 E0.05082
G1 X91.587 Y96.922 E0.04240
G1 X92.736 Y96.838 E0.03613
G1 X157.254 Y96.838 E2.02290
G1 X158.851 Y96.997 E0.05034
G1 X160.364 Y97.456 E0.04957
G1 X161.549 Y98.063 E0.04174
G1 X162.803 Y99.018 E0.04942
G1 X163.871 Y100.228 E0.05061
G1 X164.663 Y101.586 E0.04930
G1 X165.120 Y102.837 E0.04177
G1 X165.389 Y104.388 E0.04934
G1 X165.350 Y106.005 E0.05072
G1 X165.007 Y107.536 E0.04918
G1 X164.489 Y108.769 E0.04194
G1 X163.628 Y110.093 E0.04953
G1 X162.501 Y111.249 E0.05060
G1 X161.199 Y112.143 E0.04953
G1 X159.712 Y112.781 E0.05072
G1 X158.413 Y113.078 E0.04179
G1 X157.260 Y113.162 E0.03624
G1 X91.948 Y113.123 E2.04779
G1 X90.686 Y112.896 E0.04020
G1 X89.259 Y112.377 E0.04764
G1 X88.159 Y111.748 E0.03972
G1 X87.159 Y110.945 E0.04022
G1 X86.154 Y109.806 E0.04764
G1 X85.483 Y108.715 E0.04015
G1 X84.909 Y107.265 E0.04889
G1 X84.652 Y106.021 E0.03985
G1 X84.610 Y104.396 E0.05096
G1 X84.889 Y102.802 E0.05072
G1 X85.482 Y101.285 E0.05108
G1 X86.335 Y99.955 E0.04953
G1 X87.441 Y98.808 E0.04996
G1 F8640.000
G1 X88.782 Y97.869 E-0.37803
G1 X90.269 Y97.225 E-0.37427
G1 X90.302 Y97.218 E-0.00770
G1 E-0.04000 F2100.00000
G1 Z0.800 F10800.000
G1 X90.453 Y102.263
G1 Z0.200
G1 E0.80000 F2100.00000
G1 F1200.000
G1 X90.737 Y102.048 E0.01117
G1 X91.041 Y101.862 E0.01117
G1 X91.362 Y101.708 E0.01117
G1 X91.697 Y101.586 E0.01117
G1 X92.042 Y101.498 E0.01117
G1 X92.394 Y101.445 E0.01117
G1 X92.733 Y101.428 E0.01063
G1 X157.428 Y101.432 E2.02848
G1 X157.782 Y101.467 E0.01117
G1 X158.132 Y101.538 E0.01117
G1 X158.472 Y101.643 E0.01117
G1 X158.800 Y101.781 E0.01117
G1 X159.113 Y101.951 E0.01117
G1 X159.407 Y102.152 E0.01117
G1 X159.680 Y102.381 E0.01117
G1 X159.929 Y102.636 E0.01117
G1 X160.151 Y102.914 E0.01117
G1 X160.344 Y103.214 E0.01117
G1 X160.507 Y103.531 E0.01117
G1 X160.639 Y103.869 E0.01140
G1 X160.768 Y104.372 E0.01629
G1 X160.813 Y104.733 E0.01140
G1 X160.822 Y105.089 E0.01117
G1 X160.795 Y105.444 E0.01117
G1 X160.733 Y105.795 E0.01117
G1 X160.637 Y106.138 E0.01117
G1 X160.507 Y106.469 E0.01117
G1 X160.344 Y106.786 E0.01117
G1 X160.148 Y107.090 E0.01134
G1 X159.813 Y107.490 E0.01634
G1 X159.547 Y107.737 E0.01140
G1 X159.263 Y107.952 E0.01117
G1 X158.959 Y108.138 E0.01117
G1 X158.631 Y108.295 E0.01140
G1 X158.139 Y108.461 E0.01629
G1 X157.782 Y108.533 E0.01140
G1 X157.428 Y108.568 E0.01117
G1 X92.572 Y108.568 E2.03352
G1 X92.218 Y108.533 E0.01117
G1 X91.868 Y108.462 E0.01117
G1 X91.528 Y108.357 E0.01117
G1 X91.200 Y108.219 E0.01117
G1 X90.887 Y108.049 E0.01117
G1 X90.593 Y107.848 E0.01117
G1 X90.320 Y107.619 E0.01117
G1 X90.071 Y107.364 E0.01117
G1 X89.849 Y107.086 E0.01117
G1 X89.656 Y106.786 E0.01117
G1 X89.493 Y106.469 E0.01117
G1 X89.361 Y106.131 E0.01140
G1 X89.232 Y105.628 E0.01629
G1 X89.187 Y105.267 E0.01140
G1 X89.178 Y104.911 E0.01117
G1 X89.205 Y104.556 E0.01117
G1 X89.267 Y104.205 E0.01117
G1 X89.363 Y103.862 E0.01117
G1 X89.493 Y103.531 E0.01117
G1 X89.656 Y103.214 E0.01117
G1 X89.853 Y102.908 E0.01140
G1 X90.187 Y102.510 E0.01629
G1 X90.409 Y102.304 E0.00951
G1 X90.461 Y102.771 F10800.000
G1 F1200.000
G1 X90.696 Y102.552 E0.01007
G1 X90.950 Y102.360 E0.00999
G1 X91.222 Y102.194 E0.00999
G1 X91.509 Y102.056 E0.00999
G1 X91.808 Y101.947 E0.00999
G1 X92.117 Y101.868 E0.00999
G1 X92.432 Y101.821 E0.00999
G1 X92.742 Y101.805 E0.00975
G1 X157.409 Y101.809 E2.02759
G1 X157.726 Y101.840 E0.00999
G1 X158.038 Y101.904 E0.00999
G1 X158.343 Y101.997 E0.00999
G1 X158.636 Y102.121 E0.00999
G1 X158.916 Y102.274 E0.00999
G1 X159.179 Y102.453 E0.00999
G1 X159.423 Y102.658 E0.00999
G1 X159.646 Y102.886 E0.00999
G1 X159.844 Y103.135 E0.00999
G1 X160.017 Y103.402 E0.00999
G1 X160.163 Y103.686 E0.00999
G1 X160.280 Y103.985 E0.01007
G1 X160.396 Y104.443 E0.01481
G1 X160.436 Y104.761 E0.01007
G1 X160.444 Y105.080 E0.00999
G1 X160.420 Y105.397 E0.00999
G1 X160.365 Y105.711 E0.00999
G1 X160.279 Y106.018 E0.00999
G1 X160.163 Y106.314 E0.00999
G1 X160.017 Y106.598 E0.00999
G1 X159.844 Y106.866 E0.01001
G1 X159.539 Y107.229 E0.01487
G1 X159.304 Y107.448 E0.01007
G1 X159.050 Y107.640 E0.00999
G1 X158.778 Y107.806 E0.00999
G1 X158.489 Y107.946 E0.01007
G1 X158.041 Y108.096 E0.01481
G1 X157.726 Y108.160 E0.01007
G1 X157.409 Y108.191 E0.00999
G1 X92.591 Y108.191 E2.03234
G1 X92.274 Y108.160 E0.00999
G1 X91.962 Y108.096 E0.00999
G1 X91.657 Y108.003 E0.00999
G1 X91.364 Y107.879 E0.00999
G1 X91.084 Y107.726 E0.00999
G1 X90.821 Y107.547 E0.00999
G1 X90.577 Y107.342 E0.00999
G1 X90.354 Y107.114 E0.00999
G1 X90.156 Y106.865 E0.00999
G1 X89.983 Y106.598 E0.00999
G1 X89.837 Y106.314 E0.00999
G1 X89.720 Y106.015 E0.01007
G1 X89.604 Y105.557 E0.01481
G1 X89.564 Y105.239 E0.01007
G1 X89.556 Y104.920 E0.00999
G1 X89.580 Y104.603 E0.00999
G1 X89.635 Y104.289 E0.00999
G1 X89.721 Y103.982 E0.00999
G1 X89.837 Y103.686 E0.00999
G1 X89.983 Y103.402 E0.00999
G1 X90.157 Y103.133 E0.01007
G1 X90.422 Y102.817 E0.01293
G1 X90.371 Y102.462 F10800.000
G1 F8640.000
G1 X90.696 Y102.552 E-0.08791
G1 X90.950 Y102.360 E-0.07357
G1 X91.222 Y102.194 E-0.07355
G1 X91.509 Y102.056 E-0.07355
G1 X91.808 Y101.947 E-0.07355
G1 X92.117 Y101.868 E-0.07355
G1 X92.432 Y101.821 E-0.07355
G1 X92.742 Y101.805 E-0.07177
G1 X93.431 Y101.805 E-0.15900
G1 E-0.04000 F2100.00000
G1 Z0.800 F10800.000
G1 X89.134 Y101.560
G1 Z0.200
G1 E0.80000 F2100.00000
G1 F1200.000
G1 X89.351 Y101.337 E0.00977
G1 X89.733 Y101.017 E0.01562
G1 X90.144 Y100.736 E0.01562
G1 X90.582 Y100.498 E0.01562
G1 X91.041 Y100.304 E0.01562
G1 X91.753 Y100.103 E0.02319
G1 X92.252 Y100.028 E0.01585
G1 X92.767 Y100.002 E0.01616
G1 X157.499 Y100.009 E2.02963
G1 X157.995 Y100.059 E0.01562
G1 X158.483 Y100.157 E0.01562
G1 X158.959 Y100.304 E0.01562
G1 X159.418 Y100.498 E0.01562
G1 X160.059 Y100.867 E0.02319
G1 X160.462 Y101.172 E0.01585
G1 X160.827 Y101.511 E0.01562
G1 X161.157 Y101.884 E0.01562
G1 X161.448 Y102.289 E0.01562
G1 X161.697 Y102.720 E0.01562
G1 X161.902 Y103.174 E0.01562
G1 X162.060 Y103.647 E0.01562
G1 X162.208 Y104.371 E0.02319
G1 X162.246 Y104.875 E0.01585
G1 X162.233 Y105.373 E0.01562
G1 X162.171 Y105.868 E0.01562
G1 X162.060 Y106.353 E0.01562
G1 X161.902 Y106.826 E0.01562
G1 X161.582 Y107.492 E0.02319
G1 X161.307 Y107.917 E0.01585
G1 X160.833 Y108.484 E0.02319
G1 X160.462 Y108.828 E0.01585
G1 X160.065 Y109.129 E0.01562
G1 X159.640 Y109.389 E0.01562
G1 X159.191 Y109.605 E0.01562
G1 X158.723 Y109.775 E0.01562
G1 X158.240 Y109.898 E0.01562
G1 X157.748 Y109.972 E0.01562
G1 X157.233 Y109.998 E0.01616
G1 X92.501 Y109.991 E2.02963
G1 X92.005 Y109.941 E0.01562
G1 X91.517 Y109.843 E0.01562
G1 X91.041 Y109.696 E0.01562
G1 X90.366 Y109.392 E0.02319
G1 X89.935 Y109.129 E0.01585
G1 X89.538 Y108.828 E0.01562
G1 X89.173 Y108.489 E0.01562
G1 X88.843 Y108.116 E0.01562
G1 X88.426 Y107.505 E0.02319
G1 X88.195 Y107.055 E0.01585
G1 X88.013 Y106.592 E0.01562
G1 X87.878 Y106.112 E0.01562
G1 X87.790 Y105.614 E0.01585
G1 X87.754 Y104.875 E0.02319
G1 X87.792 Y104.379 E0.01562
G1 X87.878 Y103.888 E0.01562
G1 X88.013 Y103.408 E0.01562
G1 X88.195 Y102.945 E0.01562
G1 X88.422 Y102.501 E0.01562
G1 X88.693 Y102.083 E0.01562
G1 X89.092 Y101.603 E0.01957
G1 X88.822 Y101.340 F10800.000
G1 F1200.000
G1 X89.094 Y101.060 E0.01224
G1 X89.505 Y100.716 E0.01680
G1 X89.947 Y100.414 E0.01680
G1 X90.418 Y100.158 E0.01680
G1 X90.912 Y99.950 E0.01680
G1 X91.426 Y99.791 E0.01688
G1 X91.682 Y99.732 E0.00824
G1 X92.215 Y99.652 E0.01688
G1 X92.758 Y99.625 E0.01704
G1 X157.518 Y99.632 E2.03051
G1 X158.051 Y99.685 E0.01680
G1 X158.576 Y99.792 E0.01680
G1 X159.088 Y99.950 E0.01680
G1 X159.582 Y100.158 E0.01680
G1 X160.055 Y100.415 E0.01688
G1 X160.276 Y100.558 E0.00824
G1 X160.705 Y100.883 E0.01688
G1 X161.098 Y101.247 E0.01680
G1 X161.452 Y101.649 E0.01680
G1 X161.765 Y102.084 E0.01680
G1 X162.033 Y102.548 E0.01680
G1 X162.253 Y103.036 E0.01680
G1 X162.424 Y103.544 E0.01680
G1 X162.544 Y104.069 E0.01688
G1 X162.583 Y104.329 E0.00824
G1 X162.623 Y104.866 E0.01688
G1 X162.610 Y105.402 E0.01680
G1 X162.543 Y105.933 E0.01680
G1 X162.424 Y106.456 E0.01680
G1 X162.253 Y106.964 E0.01680
G1 X162.032 Y107.454 E0.01688
G1 X161.906 Y107.685 E0.00824
G1 X161.614 Y108.137 E0.01688
G1 X161.278 Y108.558 E0.01688
G1 X161.099 Y108.751 E0.00824
G1 X160.705 Y109.117 E0.01688
G1 X160.278 Y109.441 E0.01680
G1 X159.820 Y109.720 E0.01680
G1 X159.338 Y109.953 E0.01680
G1 X158.834 Y110.136 E0.01680
G1 X158.315 Y110.268 E0.01680
G1 X157.785 Y110.348 E0.01680
G1 X157.242 Y110.375 E0.01704
G1 X92.482 Y110.368 E2.03051
G1 X91.949 Y110.315 E0.01680
G1 X91.424 Y110.208 E0.01680
G1 X90.912 Y110.050 E0.01680
G1 X90.416 Y109.841 E0.01688
G1 X90.182 Y109.721 E0.00824
G1 X89.722 Y109.441 E0.01688
G1 X89.295 Y109.117 E0.01680
G1 X88.902 Y108.753 E0.01680
G1 X88.548 Y108.351 E0.01680
G1 X88.234 Y107.914 E0.01688
G1 X88.097 Y107.690 E0.00824
G1 X87.851 Y107.211 E0.01688
G1 X87.655 Y106.712 E0.01680
G1 X87.510 Y106.196 E0.01680
G1 X87.417 Y105.666 E0.01688
G1 X87.390 Y105.404 E0.00824
G1 X87.377 Y104.866 E0.01688
G1 X87.417 Y104.332 E0.01680
G1 X87.510 Y103.804 E0.01680
G1 X87.655 Y103.288 E0.01680
G1 X87.851 Y102.789 E0.01680
G1 X88.095 Y102.313 E0.01680
G1 X88.386 Y101.863 E0.01680
G1 X88.780 Y101.383 E0.01947
G1 X89.204 Y101.419 F10800.000
G1 F8640.000
G1 X89.094 Y101.060 E-0.10399
G1 X89.505 Y100.716 E-0.12372
G1 X89.947 Y100.414 E-0.12372
G1 X90.418 Y100.158 E-0.12372
G1 X90.912 Y99.950 E-0.12372
G1 X91.426 Y99.791 E-0.12432
G1 X91.582 Y99.755 E-0.03681
G1 E-0.04000 F2100.00000
G1 Z0.800 F10800.000
G1 X90.288 Y109.202
G1 Z0.200
G1 E0.80000 F2100.00000
G1 F1200.000
G1 X89.365 Y108.279 E0.04119
G1 X89.065 Y107.939 E0.01432
G1 X88.788 Y107.555 E0.01495
G1 X88.452 Y106.936 E0.02223
G1 X88.384 Y106.761 E0.00591
G1 X91.270 Y109.648 E0.12884
G1 F8640.000
G1 X88.943 Y107.321 E-0.76000
G1 E-0.04000 F2100.00000
G1 Z0.800 F10800.000
G1 X161.472 Y102.558
G1 Z0.200
G1 E0.80000 F2100.00000
G1 F1200.000
G1 X160.280 Y101.389 E0.05270
G1 X159.903 Y101.103 E0.01495
G1 X159.292 Y100.752 E0.02223
G1 X159.011 Y100.633 E0.00964
G1 X161.624 Y103.246 E0.11662
G1 X161.788 Y103.723 E0.01593
G1 X161.854 Y104.013 E0.00937
G1 X158.237 Y100.396 E0.16141
G1 X157.953 Y100.339 E0.00917
G1 X157.609 Y100.304 E0.01091
G1 X158.762 Y101.458 E0.05150
G1 X158.569 Y101.377 E0.00663
G1 X158.201 Y101.263 E0.01213
G1 X157.987 Y101.220 E0.00689
G1 X157.059 Y100.292 E0.04142
G1 X156.523 Y100.292 E0.01694
G1 X157.380 Y101.149 E0.03825
G1 X156.843 Y101.149 E0.01694
G1 X155.986 Y100.292 E0.03825
G1 X155.449 Y100.292 E0.01694
G1 X156.306 Y101.149 E0.03825
G1 X155.769 Y101.149 E0.01694
G1 X154.912 Y100.292 E0.03825
G1 X154.375 Y100.292 E0.01694
G1 X155.232 Y101.149 E0.03825
G1 X154.696 Y101.149 E0.01694
G1 X153.838 Y100.292 E0.03825
G1 X153.302 Y100.291 E0.01694
G1 X154.159 Y101.149 E0.03826
G1 X153.622 Y101.149 E0.01694
G1 X152.765 Y100.291 E0.03826
G1 X152.228 Y100.291 E0.01694
G1 X153.085 Y101.149 E0.03826
G1 X152.549 Y101.149 E0.01694
G1 X151.691 Y100.291 E0.03826
G1 X151.154 Y100.291 E0.01694
G1 X152.012 Y101.149 E0.03826
G1 X151.475 Y101.148 E0.01694
G1 X150.618 Y100.291 E0.03826
G1 X150.081 Y100.291 E0.01694
G1 X150.938 Y101.148 E0.03826
G1 X150.401 Y101.148 E0.01694
G1 X149.544 Y100.291 E0.03826
G1 X149.007 Y100.291 E0.01694
G1 X149.865 Y101.148 E0.03827
G1 X149.328 Y101.148 E0.01694
G1 X148.470 Y100.291 E0.03827
G1 X147.934 Y100.291 E0.01694
G1 X148.791 Y101.148 E0.03827
G1 X148.254 Y101.148 E0.01694
G1 X147.397 Y100.291 E0.03827
G1 X146.860 Y100.291 E0.01694
G1 X147.717 Y101.148 E0.03827
G1 X147.181 Y101.148 E0.01694
G1 X146.323 Y100.291 E0.03827
G1 X145.786 Y100.291 E0.01694
G1 X146.644 Y101.148 E0.03827
G1 X146.107 Y101.148 E0.01694
G1 X145.250 Y100.291 E0.03827
G1 X144.713 Y100.291 E0.01694
G1 X145.570 Y101.148 E0.03828
G1 X145.034 Y101.148 E0.01694
G1 X144.176 Y100.290 E0.03828
G1 X143.639 Y100.290 E0.01694
G1 X144.497 Y101.148 E0.03828
G1 X143.960 Y101.148 E0.01694
G1 X143.102 Y100.290 E0.03828
G1 X142.565 Y100.290 E0.01694
G1 X143.423 Y101.148 E0.03828
G1 X142.886 Y101.148 E0.01694
G1 X142.029 Y100.290 E0.03828
G1 X141.492 Y100.290 E0.01694
G1 X142.350 Y101.148 E0.03828
G1 X141.813 Y101.148 E0.01694
G1 X140.955 Y100.290 E0.03828
G1 X140.418 Y100.290 E0.01694
G1 X141.276 Y101.148 E0.03829
G1 X140.739 Y101.148 E0.01694
G1 X139.881 Y100.290 E0.03829
G1 X139.345 Y100.290 E0.01694
G1 X140.203 Y101.148 E0.03829
G1 X139.666 Y101.148 E0.01694
G1 X138.808 Y100.290 E0.03829
G1 X138.271 Y100.290 E0.01694
G1 X139.129 Y101.148 E0.03829
G1 X138.592 Y101.148 E0.01694
G1 X137.734 Y100.290 E0.03829
G1 X137.197 Y100.290 E0.01694
G1 X138.055 Y101.148 E0.03829
G1 X137.519 Y101.148 E0.01694
G1 X136.661 Y100.290 E0.03829
G1 X136.124 Y100.290 E0.01694
G1 X136.982 Y101.148 E0.03830
G1 X136.445 Y101.148 E0.01694
G1 X135.587 Y100.290 E0.03830
G1 X135.050 Y100.290 E0.01694
G1 X135.908 Y101.148 E0.03830
G1 X135.371 Y101.148 E0.01694
G1 X134.513 Y100.289 E0.03830
G1 X133.977 Y100.289 E0.01694
G1 X134.835 Y101.148 E0.03830
G1 X134.298 Y101.148 E0.01694
G1 X133.440 Y100.289 E0.03830
G1 X132.903 Y100.289 E0.01694
G1 X133.761 Y101.147 E0.03830
G1 X133.224 Y101.147 E0.01694
G1 X132.366 Y100.289 E0.03830
G1 X131.829 Y100.289 E0.01694
G1 X132.688 Y101.147 E0.03831
G1 X132.151 Y101.147 E0.01694
G1 X131.292 Y100.289 E0.03831
G1 X130.756 Y100.289 E0.01694
G1 X131.614 Y101.147 E0.03831
G1 X131.077 Y101.147 E0.01694
G1 X130.219 Y100.289 E0.03831
G1 X129.682 Y100.289 E0.01694
G1 X130.540 Y101.147 E0.03831
G1 X130.004 Y101.147 E0.01694
G1 X129.145 Y100.289 E0.03831
G1 X128.608 Y100.289 E0.01694
G1 X129.467 Y101.147 E0.03831
G1 X128.930 Y101.147 E0.01694
G1 X128.072 Y100.289 E0.03831
G1 X127.535 Y100.289 E0.01694
G1 X128.393 Y101.147 E0.03832
G1 X127.857 Y101.147 E0.01694
G1 X126.998 Y100.289 E0.03832
G1 X126.461 Y100.289 E0.01694
G1 X127.320 Y101.147 E0.03832
G1 X126.783 Y101.147 E0.01694
G1 X125.924 Y100.289 E0.03832
G1 X125.388 Y100.288 E0.01694
G1 X126.246 Y101.147 E0.03832
G1 X125.709 Y101.147 E0.01694
G1 X124.851 Y100.288 E0.03832
G1 X124.314 Y100.288 E0.01694
G1 X125.173 Y101.147 E0.03832
G1 X124.636 Y101.147 E0.01694
G1 X123.777 Y100.288 E0.03832
G1 X123.240 Y100.288 E0.01694
G1 X124.099 Y101.147 E0.03833
G1 X123.562 Y101.147 E0.01694
G1 X122.704 Y100.288 E0.03833
G1 X122.167 Y100.288 E0.01694
G1 X123.025 Y101.147 E0.03833
G1 X122.489 Y101.147 E0.01694
G1 X121.630 Y100.288 E0.03833
G1 X121.093 Y100.288 E0.01694
G1 X121.952 Y101.147 E0.03833
